(G-CODE GENERATED BY FLATCAM v8.994 - www.flatcam.org - Version Date: 2020/11/7)

(Name: тестер инициализации-PTH.drl_cnc)
(Type: G-code from Geometry)
(Units: MM)

(Created on Wednesday, 21 May 2025 at 16:49)


F1000
/Tool switching while working is not supported! = Смена инструмента в процессе работы не поддерживается!
F1000
M3 S20000
G4 P1
G0 X9.9250 Y10.0250
G1 Z-1.7000 F1000
G1 Z0
G0 Z2.0000
G0 X9.9250 Y10.0250
G1 Z-1.7000 F1000
G1 Z0
G0 Z2.0000
G0 X12.9250 Y6.5250
G1 Z-1.7000 F1000
G1 Z0
G0 Z2.0000
G0 X12.9250 Y6.5250
G1 Z-1.7000 F1000
G1 Z0
G0 Z2.0000
G0 X15.2750 Y9.6750
G1 Z-1.7000 F1000
G1 Z0
G0 Z2.0000
G0 X15.2750 Y9.6750
G1 Z-1.7000 F1000
G1 Z0
G0 Z2.0000
G0 X16.7650 Y8.1250
G1 Z-1.7000 F1000
G1 Z0
G0 Z2.0000
G0 X16.7650 Y8.1250
G1 Z-1.7000 F1000
G1 Z0
G0 Z2.0000
G0 X19.1250 Y7.3750
G1 Z-1.7000 F1000
G1 Z0
G0 Z2.0000
G0 X19.1250 Y7.3750
G1 Z-1.7000 F1000
G1 Z0
G0 Z2.0000
G0 X20.3950 Y6.0350
G1 Z-1.7000 F1000
G1 Z0
G0 Z2.0000
G0 X20.3950 Y6.0350
G1 Z-1.7000 F1000
G1 Z0
G0 Z2.0000
G0 X20.2250 Y1.8050
G1 Z-1.7000 F1000
G1 Z0
G0 Z2.0000
G0 X20.2250 Y1.8050
G1 Z-1.7000 F1000
G1 Z0
G0 Z2.0000
G0 X21.6050 Y1.7850
G1 Z-1.7000 F1000
G1 Z0
G0 Z2.0000
G0 X21.6050 Y1.7850
G1 Z-1.7000 F1000
G1 Z0
G0 Z2.0000
G0 X33.8450 Y2.1750
G1 Z-1.7000 F1000
G1 Z0
G0 Z2.0000
G0 X33.8450 Y5.7750
G1 Z-1.7000 F1000
G1 Z0
G0 Z2.0000
G0 X47.4250 Y18.8250
G1 Z-1.7000 F1000
G1 Z0
G0 Z2.0000
G0 X47.4250 Y18.8250
G1 Z-1.7000 F1000
G1 Z0
G0 Z2.0000
G0 X36.2950 Y13.3250
G1 Z-1.7000 F1000
G1 Z0
G0 Z2.0000
G0 X36.2950 Y13.3250
G1 Z-1.7000 F1000
G1 Z0
G0 Z2.0000
G0 X31.1740 Y13.0460
G1 Z-1.7000 F1000
G1 Z0
G0 Z2.0000
G0 X31.1740 Y13.0460
G1 Z-1.7000 F1000
G1 Z0
G0 Z2.0000
G0 X25.2750 Y10.8750
G1 Z-1.7000 F1000
G1 Z0
G0 Z2.0000
G0 X25.2750 Y10.8750
G1 Z-1.7000 F1000
G1 Z0
G0 Z2.0000
G0 X26.6750 Y10.1750
G1 Z-1.7000 F1000
G1 Z0
G0 Z2.0000
G0 X26.6750 Y10.1750
G1 Z-1.7000 F1000
G1 Z0
G0 Z2.0000
G0 X28.3250 Y13.5250
G1 Z-1.7000 F1000
G1 Z0
G0 Z2.0000
G0 X28.3250 Y13.5250
G1 Z-1.7000 F1000
G1 Z0
G0 Z2.0000
G0 X31.2250 Y14.2450
G1 Z-1.7000 F1000
G1 Z0
G0 Z2.0000
G0 X31.2250 Y14.2450
G1 Z-1.7000 F1000
G1 Z0
G0 Z2.0000
G0 X30.2850 Y16.8650
G1 Z-1.7000 F1000
G1 Z0
G0 Z2.0000
G0 X30.2850 Y16.8650
G1 Z-1.7000 F1000
G1 Z0
G0 Z2.0000
G0 X28.4850 Y16.2950
G1 Z-1.7000 F1000
G1 Z0
G0 Z2.0000
G0 X28.4850 Y16.2950
G1 Z-1.7000 F1000
G1 Z0
G0 Z2.0000
G0 X28.4850 Y17.5850
G1 Z-1.7000 F1000
G1 Z0
G0 Z2.0000
G0 X28.4850 Y17.5850
G1 Z-1.7000 F1000
G1 Z0
G0 Z2.0000
G0 X24.9250 Y16.1250
G1 Z-1.7000 F1000
G1 Z0
G0 Z2.0000
G0 X24.9250 Y16.1250
G1 Z-1.7000 F1000
G1 Z0
G0 Z2.0000
G0 X10.2250 Y23.3250
G1 Z-1.7000 F1000
G1 Z0
G0 Z2.0000
G0 X10.2250 Y23.3250
G1 Z-1.7000 F1000
G1 Z0
G0 Z2.0000
G0 X15.5250 Y16.4250
G1 Z-1.7000 F1000
G1 Z0
G0 Z2.0000
G0 X15.5250 Y16.4250
G1 Z-1.7000 F1000
G1 Z0
G0 Z2.0000
G0 X15.1250 Y11.8250
G1 Z-1.7000 F1000
G1 Z0
G0 Z2.0000
G0 X15.1250 Y11.8250
G1 Z-1.7000 F1000
G1 Z0
G0 Z2.0000
M5 / выключение шпинделя
G0 Z0.50 X0 Y0


