(G-CODE GENERATED BY FLATCAM v8.994 - www.flatcam.org - Version Date: 2020/11/7)

(Name: тестер инициализации-Edge_Cuts.gbr_cutout_cnc)
(Type: G-code from Geometry)
(Units: MM)

(Created on Wednesday, 21 May 2025 at 16:46)


F800
/Tool switching while working is not supported! = Смена инструмента в процессе работы не поддерживается!
M3 S20000.0
G4 P1.0
F800
G0 X-0.5000 Y25.0250
F800
G1 Z-1.8000 F800
F800
G1 X-0.4993 Y25.0520
G1 X-0.4945 Y25.1008
G1 X-0.4845 Y25.1514
G1 X-0.4697 Y25.2007
G1 X-0.4501 Y25.2484
G1 X-0.4259 Y25.2939
G1 X-0.3974 Y25.3368
G1 X-0.3648 Y25.3767
G1 X-0.3285 Y25.4132
G1 X-0.2887 Y25.4460
G1 X-0.2459 Y25.4747
G1 X-0.2006 Y25.4991
G1 X-0.1530 Y25.5189
G1 X-0.1037 Y25.5340
G1 X-0.0532 Y25.5441
G1 X-0.0020 Y25.5493
G1 X0.0250 Y25.5500
G1 X54.0250 Y25.5500
G1 X54.0520 Y25.5493
G1 X54.1008 Y25.5445
G1 X54.1514 Y25.5346
G1 X54.2007 Y25.5197
G1 X54.2484 Y25.5001
G1 X54.2960 Y25.4747
G1 X54.3368 Y25.4474
G1 X54.3767 Y25.4148
G1 X54.4148 Y25.3767
G1 X54.4474 Y25.3368
G1 X54.4747 Y25.2960
G1 X54.5001 Y25.2484
G1 X54.5189 Y25.2030
G1 X54.5340 Y25.1538
G1 X54.5445 Y25.1008
G1 X54.5493 Y25.0520
G1 X54.5500 Y25.0250
G1 X54.5500 Y0.0250
G1 X54.5493 Y-0.0020
G1 X54.5445 Y-0.0508
G1 X54.5346 Y-0.1014
G1 X54.5197 Y-0.1507
G1 X54.5001 Y-0.1983
G1 X54.4747 Y-0.2459
G1 X54.4474 Y-0.2867
G1 X54.4148 Y-0.3266
G1 X54.3767 Y-0.3648
G1 X54.3368 Y-0.3974
G1 X54.2960 Y-0.4246
G1 X54.2484 Y-0.4501
G1 X54.2030 Y-0.4689
G1 X54.1538 Y-0.4839
G1 X54.1008 Y-0.4945
G1 X54.0520 Y-0.4993
G1 X54.0250 Y-0.5000
G1 X0.0250 Y-0.5000
G1 X-0.0020 Y-0.4993
G1 X-0.0508 Y-0.4945
G1 X-0.1014 Y-0.4845
G1 X-0.1507 Y-0.4697
G1 X-0.1983 Y-0.4501
G1 X-0.2459 Y-0.4246
G1 X-0.2867 Y-0.3974
G1 X-0.3266 Y-0.3648
G1 X-0.3648 Y-0.3266
G1 X-0.3974 Y-0.2867
G1 X-0.4246 Y-0.2459
G1 X-0.4501 Y-0.1983
G1 X-0.4689 Y-0.1530
G1 X-0.4839 Y-0.1037
G1 X-0.4945 Y-0.0508
G1 X-0.4993 Y-0.0020
G1 X-0.5000 Y0.0250
G1 X-0.5000 Y25.0250
G0 Z2.0000
M5 / выключение шпинделя
G0 Z2.0000
G0 Z15.00 X0 Y0


