(G-CODE GENERATED BY FLATCAM v8.994 - www.flatcam.org - Version Date: 2020/11/7)

(Name: тестер инициализации-F_Cu.gbr_iso_combined_cnc)
(Type: G-code from Geometry)
(Units: MM)

(Created on Wednesday, 21 May 2025 at 17:08)

/TOOL DIAMETER = ДИАМЕТР ИНСТРУМЕНТА: 0.2 mm
/Feedrate_XY = подача XY: 800.0 mm/min
/Feedrate_Z = подача Z: 800.0 mm/min
/Feedrate rapids = быстрая подача1500.0 mm/min

/Z_Cut = проходы по Z: 0.0 mm
/Z_Move: 2.0 mm
/Z Start: None mm
/Z End: 15.0 mm
/X,Y End: None mm
(Steps per circle: 64)
/Steps per circle: 64
/Preprocessor Geometry: Charly4U

/X range:    0.3785 ...   53.6715  mm
/Y range:    0.3785 ...   24.6715  mm

/Скорость шпинделя: 20000.0 RPM
G71 / измерения в мм
G90 / программирование в абсолютных координатах

F800
/Tool switching while working is not supported! = Смена инструмента в процессе работы не поддерживается!
M3 S20000.0
G4 P1.0
F800
G0 X0.4767 Y0.6389
F800
G1 Z0.0000 F800
F800
G1 X0.4881 Y0.5862
G1 X0.4900 Y0.5802
G1 X0.4932 Y0.5734
G1 X0.4989 Y0.5653
G1 X0.5481 Y0.5089
G1 X0.5529 Y0.5049
G1 X0.5570 Y0.5022
G1 X0.5614 Y0.4998
G1 X0.5672 Y0.4976
G1 X0.6366 Y0.4772
G1 X0.6436 Y0.4759
G1 X0.6495 Y0.4755
G1 X53.4005 Y0.4755
G1 X53.4053 Y0.4757
G1 X53.4111 Y0.4767
G1 X53.4639 Y0.4881
G1 X53.4721 Y0.4909
G1 X53.4788 Y0.4945
G1 X53.4848 Y0.4989
G1 X53.5385 Y0.5455
G1 X53.5428 Y0.5500
G1 X53.5466 Y0.5549
G1 X53.5502 Y0.5614
G1 X53.5528 Y0.5684
G1 X53.5728 Y0.6366
G1 X53.5740 Y0.6424
G1 X53.5745 Y0.6495
G1 X53.5745 Y24.4005
G1 X53.5743 Y24.4053
G1 X53.5734 Y24.4111
G1 X53.5619 Y24.4639
G1 X53.5591 Y24.4721
G1 X53.5556 Y24.4788
G1 X53.5511 Y24.4848
G1 X53.5045 Y24.5385
G1 X53.5001 Y24.5428
G1 X53.4951 Y24.5466
G1 X53.4886 Y24.5502
G1 X53.4816 Y24.5528
G1 X53.4135 Y24.5728
G1 X53.4076 Y24.5740
G1 X53.4029 Y24.5745
G1 X51.4584 Y24.5745
G1 X51.4440 Y24.5739
G1 X51.4344 Y24.5718
G1 X51.3654 Y24.5462
G1 X51.3598 Y24.5435
G1 X51.3546 Y24.5402
G1 X51.3498 Y24.5362
G1 X51.3448 Y24.5307
G1 X51.3014 Y24.4728
G1 X51.2982 Y24.4675
G1 X51.2960 Y24.4631
G1 X51.2940 Y24.4572
G1 X51.2929 Y24.4523
G1 X51.2873 Y24.3765
G1 X51.2875 Y24.3690
G1 X51.2885 Y24.3629
G1 X51.2907 Y24.3558
G1 X51.2933 Y24.3502
G1 X51.3274 Y24.2878
G1 X51.3329 Y24.2801
G1 X52.5065 Y23.1063
G1 X52.5526 Y23.0264
G1 X52.5765 Y22.9373
G1 X52.5765 Y10.7699
G1 X52.5526 Y10.6807
G1 X52.5065 Y10.6008
G1 X51.3638 Y9.4582
G1 X51.3509 Y9.4437
G1 X51.3473 Y9.4387
G1 X51.3450 Y9.4344
G1 X51.3159 Y9.3628
G1 X51.3144 Y9.3568
G1 X51.3136 Y9.3506
G1 X51.3135 Y9.3457
G1 X51.3142 Y9.3395
G1 X51.3273 Y9.2696
G1 X51.3295 Y9.2616
G1 X51.3319 Y9.2561
G1 X51.3884 Y9.1451
G1 X51.4429 Y8.9774
G1 X51.4705 Y8.8032
G1 X51.4705 Y8.6268
G1 X51.4429 Y8.4526
G1 X51.3884 Y8.2849
G1 X51.3083 Y8.1277
G1 X51.2047 Y7.9851
G1 X51.0800 Y7.8603
G1 X50.9373 Y7.7567
G1 X50.7801 Y7.6766
G1 X50.6124 Y7.6221
G1 X50.4382 Y7.5945
G1 X49.8118 Y7.5945
G1 X49.6376 Y7.6221
G1 X49.4699 Y7.6766
G1 X49.3127 Y7.7567
G1 X49.1701 Y7.8603
G1 X49.0453 Y7.9851
G1 X48.9417 Y8.1277
G1 X48.8616 Y8.2849
G1 X48.8071 Y8.4526
G1 X48.7795 Y8.6268
G1 X48.7795 Y8.8032
G1 X48.8071 Y8.9774
G1 X48.8616 Y9.1451
G1 X48.9417 Y9.3023
G1 X49.0453 Y9.4450
G1 X49.1701 Y9.5697
G1 X49.3127 Y9.6733
G1 X49.4699 Y9.7534
G1 X49.6376 Y9.8079
G1 X49.6719 Y9.8134
G1 X49.6790 Y9.8152
G1 X49.7452 Y9.8452
G1 X49.7504 Y9.8482
G1 X49.7553 Y9.8517
G1 X49.7605 Y9.8568
G1 X49.7650 Y9.8625
G1 X49.8043 Y9.9218
G1 X49.8067 Y9.9261
G1 X49.8091 Y9.9318
G1 X49.8110 Y9.9390
G1 X49.8119 Y9.9464
G1 X49.8129 Y10.0188
G1 X49.8125 Y10.0250
G1 X49.8109 Y10.0322
G1 X49.8088 Y10.0381
G1 X49.8060 Y10.0436
G1 X49.7671 Y10.1061
G1 X49.7606 Y10.1136
G1 X49.7559 Y10.1176
G1 X49.7518 Y10.1204
G1 X49.6843 Y10.1527
G1 X49.6788 Y10.1549
G1 X49.6718 Y10.1567
G1 X49.6376 Y10.1621
G1 X49.4699 Y10.2166
G1 X49.3127 Y10.2967
G1 X49.1701 Y10.4003
G1 X49.0453 Y10.5251
G1 X48.9417 Y10.6677
G1 X48.8616 Y10.8249
G1 X48.8071 Y10.9926
G1 X48.7861 Y11.1251
G1 X48.7795 Y11.1668
G1 X48.7795 Y11.3432
G1 X48.8071 Y11.5174
G1 X48.8616 Y11.6851
G1 X48.9417 Y11.8423
G1 X49.0453 Y11.9850
G1 X49.1701 Y12.1097
G1 X49.3127 Y12.2133
G1 X49.4699 Y12.2934
G1 X49.6376 Y12.3479
G1 X49.6719 Y12.3534
G1 X49.6790 Y12.3552
G1 X49.7441 Y12.3847
G1 X49.7484 Y12.3869
G1 X49.7534 Y12.3902
G1 X49.7597 Y12.3959
G1 X49.7650 Y12.4025
G1 X49.8043 Y12.4618
G1 X49.8072 Y12.4672
G1 X49.8095 Y12.4730
G1 X49.8113 Y12.4803
G1 X49.8119 Y12.4877
G1 X49.8129 Y12.5588
G1 X49.8118 Y12.5686
G1 X49.8097 Y12.5758
G1 X49.8060 Y12.5836
G1 X49.7678 Y12.6450
G1 X49.7640 Y12.6500
G1 X49.7597 Y12.6545
G1 X49.7549 Y12.6584
G1 X49.7496 Y12.6616
G1 X49.6843 Y12.6927
G1 X49.6788 Y12.6949
G1 X49.6718 Y12.6967
G1 X49.6376 Y12.7021
G1 X49.4699 Y12.7566
G1 X49.3127 Y12.8367
G1 X49.1701 Y12.9403
G1 X49.0453 Y13.0651
G1 X48.9417 Y13.2077
G1 X48.8616 Y13.3649
G1 X48.8071 Y13.5326
G1 X48.7795 Y13.7068
G1 X48.7795 Y13.8832
G1 X48.7923 Y13.9645
G1 X48.7924 Y13.9703
G1 X48.7909 Y14.0198
G1 X48.7889 Y14.0295
G1 X48.7856 Y14.0375
G1 X48.7516 Y14.0999
G1 X48.7484 Y14.1050
G1 X48.7430 Y14.1113
G1 X47.1445 Y15.7098
G1 X47.0984 Y15.7897
G1 X47.0745 Y15.8789
G1 X47.0745 Y18.0636
G1 X47.0741 Y18.0700
G1 X47.0623 Y18.1268
G1 X47.0587 Y18.1360
G1 X47.0533 Y18.1442
G1 X47.0078 Y18.1988
G1 X47.0037 Y18.2031
G1 X46.9972 Y18.2083
G1 X46.9466 Y18.2421
G1 X46.8421 Y18.3466
G1 X46.7599 Y18.4695
G1 X46.7034 Y18.6061
G1 X46.6745 Y18.7511
G1 X46.6745 Y18.8989
G1 X46.7034 Y19.0439
G1 X46.7599 Y19.1805
G1 X46.8421 Y19.3034
G1 X46.9466 Y19.4080
G1 X47.0695 Y19.4901
G1 X47.2061 Y19.5467
G1 X47.3511 Y19.5755
G1 X47.4989 Y19.5755
G1 X47.6439 Y19.5467
G1 X47.7805 Y19.4901
G1 X47.9034 Y19.4080
G1 X48.0080 Y19.3034
G1 X48.0901 Y19.1805
G1 X48.1467 Y19.0439
G1 X48.1755 Y18.8989
G1 X48.1755 Y18.7511
G1 X48.1467 Y18.6061
G1 X48.0901 Y18.4695
G1 X48.0080 Y18.3466
G1 X47.9034 Y18.2421
G1 X47.8487 Y18.2052
G1 X47.8449 Y18.2017
G1 X47.8070 Y18.1629
G1 X47.8015 Y18.1549
G1 X47.7976 Y18.1459
G1 X47.7775 Y18.0777
G1 X47.7757 Y18.0683
G1 X47.7755 Y16.1423
G1 X47.7786 Y16.1106
G1 X47.7803 Y16.1021
G1 X47.7839 Y16.0930
G1 X47.8185 Y16.0296
G1 X47.8218 Y16.0246
G1 X47.8256 Y16.0201
G1 X48.5488 Y15.2969
G1 X48.5545 Y15.2920
G1 X48.6051 Y15.2600
G1 X48.6116 Y15.2567
G1 X48.6185 Y15.2545
G1 X48.6281 Y15.2530
G1 X48.6991 Y15.2493
G1 X48.7065 Y15.2496
G1 X48.7150 Y15.2514
G1 X48.7242 Y15.2552
G1 X48.7859 Y15.2904
G1 X48.7921 Y15.2946
G1 X48.7976 Y15.2996
G1 X48.8023 Y15.3054
G1 X48.8055 Y15.3107
G1 X48.8384 Y15.3738
G1 X48.8419 Y15.3831
G1 X48.8432 Y15.3904
G1 X48.8434 Y15.3991
G1 X48.8370 Y15.4699
G1 X48.8361 Y15.4758
G1 X48.8337 Y15.4837
G1 X48.7895 Y15.5959
G1 X48.7800 Y15.6750
G1 X48.7800 Y16.1350
G1 X48.9800 Y16.1350
G1 X48.9800 Y15.7138
G1 X48.9815 Y15.6856
G1 X48.9854 Y15.6589
G1 X48.9929 Y15.6279
G1 X49.0028 Y15.6002
G1 X49.0166 Y15.5715
G1 X49.0306 Y15.5483
G1 X49.0466 Y15.5266
G1 X49.0679 Y15.5029
G1 X49.0916 Y15.4816
G1 X49.1133 Y15.4656
G1 X49.1365 Y15.4516
G1 X49.1652 Y15.4378
G1 X49.1953 Y15.4273
G1 X49.2215 Y15.4208
G1 X49.2482 Y15.4168
G1 X49.2800 Y15.4150
G1 X50.9725 Y15.4151
G1 X50.9994 Y15.4165
G1 X51.0309 Y15.4213
G1 X51.0571 Y15.4279
G1 X51.0825 Y15.4370
G1 X51.1092 Y15.4493
G1 X51.1367 Y15.4656
G1 X51.1603 Y15.4831
G1 X51.1821 Y15.5029
G1 X51.2019 Y15.5247
G1 X51.2195 Y15.5483
G1 X51.2334 Y15.5715
G1 X51.2481 Y15.6025
G1 X51.2571 Y15.6279
G1 X51.2642 Y15.6565
G1 X51.2686 Y15.6856
G1 X51.2700 Y15.7138
G1 X51.2700 Y16.9562
G1 X51.2686 Y16.9844
G1 X51.2642 Y17.0135
G1 X51.2571 Y17.0421
G1 X51.2467 Y17.0709
G1 X51.2334 Y17.0986
G1 X51.2195 Y17.1217
G1 X51.2034 Y17.1434
G1 X51.1821 Y17.1671
G1 X51.1603 Y17.1869
G1 X51.1367 Y17.2045
G1 X51.1092 Y17.2207
G1 X51.0848 Y17.2322
G1 X51.0594 Y17.2413
G1 X51.0285 Y17.2492
G1 X50.9994 Y17.2536
G1 X50.9700 Y17.2550
G1 X50.3250 Y17.2550
G1 X50.3250 Y17.4550
G1 X51.0101 Y17.4550
G1 X51.0891 Y17.4455
G1 X51.2328 Y17.3889
G1 X51.2375 Y17.3874
G1 X51.2432 Y17.3863
G1 X51.2703 Y17.3772
G1 X51.2789 Y17.3758
G1 X51.2863 Y17.3757
G1 X51.3628 Y17.3867
G1 X51.3688 Y17.3884
G1 X51.3745 Y17.3909
G1 X51.3798 Y17.3940
G1 X51.3848 Y17.3978
G1 X51.4385 Y17.4443
G1 X51.4436 Y17.4498
G1 X51.4472 Y17.4548
G1 X51.4502 Y17.4603
G1 X51.4524 Y17.4660
G1 X51.4734 Y17.5377
G1 X51.4742 Y17.5424
G1 X51.4745 Y17.5484
G1 X51.4744 Y22.5118
G1 X51.4711 Y22.5419
G1 X51.4697 Y22.5479
G1 X51.4677 Y22.5537
G1 X51.4315 Y22.6204
G1 X51.4282 Y22.6254
G1 X51.4244 Y22.6299
G1 X50.5308 Y23.5235
G1 X50.5052 Y23.5445
G1 X50.5001 Y23.5479
G1 X50.4946 Y23.5507
G1 X50.4889 Y23.5528
G1 X50.4207 Y23.5728
G1 X50.4137 Y23.5742
G1 X50.4078 Y23.5745
G1 X30.0498 Y23.5745
G1 X30.0355 Y23.5739
G1 X30.0306 Y23.5731
G1 X30.0247 Y23.5715
G1 X29.9558 Y23.5457
G1 X29.9502 Y23.5429
G1 X29.9451 Y23.5394
G1 X29.9404 Y23.5354
G1 X29.9363 Y23.5307
G1 X29.8929 Y23.4728
G1 X29.8891 Y23.4664
G1 X29.8866 Y23.4607
G1 X29.8849 Y23.4548
G1 X29.8839 Y23.4487
G1 X29.8787 Y23.3752
G1 X29.8789 Y23.3690
G1 X29.8800 Y23.3629
G1 X29.8817 Y23.3570
G1 X29.8848 Y23.3502
G1 X29.9195 Y23.2868
G1 X29.9252 Y23.2792
G1 X29.9353 Y23.2690
G1 X29.9738 Y23.1817
G1 X29.9755 Y23.1670
G1 X29.9755 Y21.6830
G1 X29.9738 Y21.6683
G1 X29.9353 Y21.5810
G1 X29.8690 Y21.5148
G1 X29.7817 Y21.4762
G1 X29.7670 Y21.4745
G1 X27.8830 Y21.4745
G1 X27.8683 Y21.4762
G1 X27.7810 Y21.5148
G1 X27.7148 Y21.5810
G1 X27.6762 Y21.6683
G1 X27.6745 Y21.6830
G1 X27.6745 Y22.9505
G1 X27.6738 Y22.9588
G1 X27.6619 Y23.0139
G1 X27.6600 Y23.0198
G1 X27.6574 Y23.0255
G1 X27.6519 Y23.0338
G1 X27.6028 Y23.0903
G1 X27.5991 Y23.0936
G1 X27.5941 Y23.0972
G1 X27.5886 Y23.1002
G1 X27.5840 Y23.1020
G1 X27.5100 Y23.1236
G1 X27.5005 Y23.1245
G1 X25.7490 Y23.1245
G1 X25.7395 Y23.1236
G1 X25.6857 Y23.1119
G1 X25.6762 Y23.1086
G1 X25.6708 Y23.1056
G1 X25.6667 Y23.1027
G1 X25.6110 Y23.0545
G1 X25.6044 Y23.0471
G1 X25.5999 Y23.0397
G1 X25.5971 Y23.0328
G1 X25.5762 Y22.9611
G1 X25.5754 Y22.9564
G1 X25.5750 Y22.9505
G1 X25.5750 Y22.6250
G1 X25.3750 Y22.6250
G1 X25.3749 Y23.1287
G1 X25.3738 Y23.1360
G1 X25.3717 Y23.1430
G1 X25.3685 Y23.1497
G1 X25.3644 Y23.1558
G1 X25.3595 Y23.1612
G1 X25.3538 Y23.1659
G1 X25.3464 Y23.1702
G1 X25.3395 Y23.1729
G1 X25.3323 Y23.1745
G1 X25.3250 Y23.1750
G1 X23.5250 Y23.1750
G1 X23.5189 Y23.1746
G1 X23.5105 Y23.1729
G1 X23.5025 Y23.1697
G1 X23.4952 Y23.1652
G1 X23.4888 Y23.1595
G1 X23.4834 Y23.1528
G1 X23.4793 Y23.1453
G1 X23.4765 Y23.1372
G1 X23.4751 Y23.1287
G1 X23.4750 Y22.6250
G1 X23.2750 Y22.6250
G1 X23.2750 Y22.9517
G1 X23.2739 Y22.9611
G1 X23.2614 Y23.0175
G1 X23.2573 Y23.0266
G1 X23.2524 Y23.0338
G1 X23.2050 Y23.0885
G1 X23.1976 Y23.0951
G1 X23.1913 Y23.0991
G1 X23.1833 Y23.1024
G1 X23.1151 Y23.1225
G1 X23.1081 Y23.1240
G1 X23.1010 Y23.1245
G1 X21.5083 Y23.1244
G1 X21.4781 Y23.1211
G1 X21.4721 Y23.1197
G1 X21.4664 Y23.1177
G1 X21.3996 Y23.0815
G1 X21.3946 Y23.0782
G1 X21.3901 Y23.0744
G1 X20.5154 Y22.1997
G1 X20.5116 Y22.1951
G1 X20.5083 Y22.1901
G1 X20.4741 Y22.1264
G1 X20.4712 Y22.1195
G1 X20.4696 Y22.1135
G1 X20.4688 Y22.1073
G1 X20.4687 Y22.1011
G1 X20.4745 Y22.0278
G1 X20.4764 Y22.0193
G1 X20.4797 Y22.0112
G1 X20.4843 Y22.0039
G1 X20.5266 Y21.9483
G1 X20.5321 Y21.9421
G1 X20.5367 Y21.9383
G1 X20.6239 Y21.8739
G1 X20.6937 Y21.7793
G1 X20.7330 Y21.6670
G1 X20.7350 Y21.6457
G1 X20.7350 Y21.6250
G1 X20.5325 Y21.6250
G1 X20.5311 Y21.6333
G1 X20.5265 Y21.6513
G1 X20.5205 Y21.6677
G1 X20.5131 Y21.6835
G1 X20.5016 Y21.7026
G1 X20.4919 Y21.7155
G1 X20.4802 Y21.7285
G1 X20.4636 Y21.7434
G1 X20.4506 Y21.7530
G1 X20.4346 Y21.7626
G1 X20.4177 Y21.7705
G1 X20.4025 Y21.7761
G1 X20.3809 Y21.7816
G1 X20.3636 Y21.7841
G1 X20.3450 Y21.7850
G1 X20.0650 Y21.7850
G1 X20.0476 Y21.7842
G1 X20.0279 Y21.7814
G1 X20.0075 Y21.7761
G1 X19.9923 Y21.7705
G1 X19.9776 Y21.7637
G1 X19.9595 Y21.7530
G1 X19.9445 Y21.7419
G1 X19.9307 Y21.7294
G1 X19.9181 Y21.7155
G1 X19.9070 Y21.7006
G1 X19.8974 Y21.6846
G1 X19.8895 Y21.6677
G1 X19.8832 Y21.6502
G1 X19.8784 Y21.6309
G1 X19.8759 Y21.6136
G1 X19.8750 Y21.5950
G1 X19.8750 Y21.2550
G1 X19.8757 Y21.2388
G1 X19.8792 Y21.2156
G1 X19.8832 Y21.1999
G1 X19.8895 Y21.1823
G1 X19.8987 Y21.1633
G1 X19.9070 Y21.1495
G1 X19.9174 Y21.1354
G1 X19.9324 Y21.1190
G1 X19.9445 Y21.1081
G1 X19.9584 Y21.0977
G1 X19.9765 Y21.0869
G1 X19.9923 Y21.0795
G1 X20.0050 Y21.0749
G1 X20.0050 Y20.8659
G1 X19.9930 Y20.8670
G1 X19.8807 Y20.9063
G1 X19.8518 Y20.9276
G1 X19.8444 Y20.9319
G1 X19.7839 Y20.9568
G1 X19.7757 Y20.9589
G1 X19.7673 Y20.9596
G1 X19.7600 Y20.9591
G1 X19.6897 Y20.9490
G1 X19.6824 Y20.9472
G1 X19.6744 Y20.9438
G1 X19.6662 Y20.9383
G1 X19.6106 Y20.8900
G1 X19.6064 Y20.8855
G1 X19.6028 Y20.8804
G1 X19.5993 Y20.8739
G1 X19.5972 Y20.8680
G1 X19.5772 Y20.7998
G1 X19.5760 Y20.7940
G1 X19.5755 Y20.7869
G1 X19.5755 Y19.2423
G1 X19.5786 Y19.2106
G1 X19.5800 Y19.2033
G1 X19.5819 Y19.1975
G1 X19.5845 Y19.1919
G1 X19.6185 Y19.1296
G1 X19.6218 Y19.1246
G1 X19.6248 Y19.1210
G1 X20.0528 Y18.6929
G1 X20.0678 Y18.6795
G1 X20.0729 Y18.6760
G1 X20.0772 Y18.6736
G1 X20.1454 Y18.6461
G1 X20.1513 Y18.6442
G1 X20.1574 Y18.6430
G1 X20.1624 Y18.6426
G1 X20.1723 Y18.6432
G1 X20.2433 Y18.6569
G1 X20.2504 Y18.6590
G1 X20.2582 Y18.6628
G1 X20.2662 Y18.6687
G1 X20.3202 Y18.7203
G1 X20.3259 Y18.7279
G1 X20.3429 Y18.7576
G1 X20.3574 Y18.7936
G1 X20.3594 Y18.7996
G1 X20.3604 Y18.8045
G1 X20.3609 Y18.8095
G1 X20.3607 Y18.8205
G1 X20.3634 Y18.8308
G1 X20.3644 Y18.8379
G1 X20.3645 Y19.0357
G1 X20.3665 Y19.0571
G1 X20.4059 Y19.1695
G1 X20.4453 Y19.2230
G1 X20.4558 Y19.2393
G1 X20.4592 Y19.2460
G1 X20.4619 Y19.2543
G1 X20.4772 Y19.3225
G1 X20.4782 Y19.3286
G1 X20.4784 Y19.3348
G1 X20.4778 Y19.3410
G1 X20.4765 Y19.3470
G1 X20.4510 Y19.4173
G1 X20.4485 Y19.4227
G1 X20.4454 Y19.4278
G1 X20.4063 Y19.4807
G1 X20.3670 Y19.5930
G1 X20.3659 Y19.6050
G1 X20.5749 Y19.6050
G1 X20.5795 Y19.5923
G1 X20.5874 Y19.5754
G1 X20.5970 Y19.5595
G1 X20.6066 Y19.5464
G1 X20.6215 Y19.5298
G1 X20.6345 Y19.5181
G1 X20.6474 Y19.5084
G1 X20.6676 Y19.4963
G1 X20.6823 Y19.4895
G1 X20.6999 Y19.4832
G1 X20.7204 Y19.4782
G1 X20.7364 Y19.4759
G1 X20.7538 Y19.4750
G1 X21.0950 Y19.4750
G1 X21.1136 Y19.4759
G1 X21.1321 Y19.4787
G1 X21.1502 Y19.4832
G1 X21.1677 Y19.4895
G1 X21.1846 Y19.4974
G1 X21.2026 Y19.5084
G1 X21.2174 Y19.5197
G1 X21.2294 Y19.5307
G1 X21.2403 Y19.5426
G1 X21.2530 Y19.5595
G1 X21.2620 Y19.5744
G1 X21.2705 Y19.5923
G1 X21.2775 Y19.6122
G1 X21.2814 Y19.6279
G1 X21.2838 Y19.6440
G1 X21.2850 Y19.6626
G1 X21.2850 Y19.9450
G1 X21.2841 Y19.9636
G1 X21.2816 Y19.9809
G1 X21.2761 Y20.0025
G1 X21.2705 Y20.0177
G1 X21.2626 Y20.0346
G1 X21.2530 Y20.0506
G1 X21.2434 Y20.0636
G1 X21.2285 Y20.0802
G1 X21.2155 Y20.0919
G1 X21.2026 Y20.1016
G1 X21.1835 Y20.1131
G1 X21.1677 Y20.1205
G1 X21.1513 Y20.1265
G1 X21.1333 Y20.1311
G1 X21.1250 Y20.1325
G1 X21.1250 Y20.3350
G1 X21.1457 Y20.3350
G1 X21.1670 Y20.3330
G1 X21.2793 Y20.2937
G1 X21.3739 Y20.2239
G1 X21.4437 Y20.1293
G1 X21.4533 Y20.1018
G1 X21.4558 Y20.0960
G1 X21.4760 Y20.0583
G1 X21.4811 Y20.0515
G1 X21.4864 Y20.0465
G1 X21.5453 Y20.0024
G1 X21.5505 Y19.9991
G1 X21.5573 Y19.9961
G1 X21.5633 Y19.9943
G1 X21.5707 Y19.9933
G1 X21.6416 Y19.9882
G1 X21.6515 Y19.9887
G1 X21.6599 Y19.9908
G1 X21.6668 Y19.9937
G1 X21.7302 Y20.0283
G1 X21.7380 Y20.0338
G1 X22.1098 Y20.4055
G1 X22.1897 Y20.4516
G1 X22.2789 Y20.4755
G1 X23.1017 Y20.4755
G1 X23.1100 Y20.4764
G1 X23.1639 Y20.4881
G1 X23.1698 Y20.4900
G1 X23.1755 Y20.4926
G1 X23.1838 Y20.4981
G1 X23.2394 Y20.5464
G1 X23.2428 Y20.5500
G1 X23.2466 Y20.5549
G1 X23.2496 Y20.5603
G1 X23.2516 Y20.5649
G1 X23.2725 Y20.6354
G1 X23.2742 Y20.6436
G1 X23.2745 Y20.6495
G1 X23.2745 Y20.7670
G1 X23.2762 Y20.7817
G1 X23.3148 Y20.8690
G1 X23.3810 Y20.9353
G1 X23.4683 Y20.9738
G1 X23.4830 Y20.9755
G1 X25.3670 Y20.9755
G1 X25.3817 Y20.9738
G1 X25.4690 Y20.9353
G1 X25.5353 Y20.8690
G1 X25.5738 Y20.7817
G1 X25.5755 Y20.7670
G1 X25.5755 Y19.2830
G1 X25.5738 Y19.2683
G1 X25.5352 Y19.1809
G1 X25.5271 Y19.1720
G1 X25.5217 Y19.1637
G1 X25.4916 Y19.0979
G1 X25.4894 Y19.0921
G1 X25.4882 Y19.0873
G1 X25.4871 Y19.0775
G1 X25.4876 Y19.0700
G1 X25.4978 Y18.9997
G1 X25.4995 Y18.9924
G1 X25.5024 Y18.9856
G1 X25.5048 Y18.9812
G1 X25.5085 Y18.9762
G1 X25.5558 Y18.9215
G1 X25.5632 Y18.9149
G1 X25.5674 Y18.9122
G1 X25.5729 Y18.9093
G1 X25.5787 Y18.9072
G1 X25.6469 Y18.8872
G1 X25.6527 Y18.8860
G1 X25.6587 Y18.8855
G1 X26.1991 Y18.8855
G1 X26.2183 Y18.8866
G1 X26.2511 Y18.8905
G1 X26.8389 Y18.8905
G1 X26.9130 Y18.8816
G1 X27.0334 Y18.8341
G1 X27.1362 Y18.7562
G1 X27.2141 Y18.6534
G1 X27.2394 Y18.5895
G1 X27.2429 Y18.5813
G1 X27.2465 Y18.5750
G1 X27.2502 Y18.5703
G1 X27.2976 Y18.5156
G1 X27.3021 Y18.5114
G1 X27.3061 Y18.5085
G1 X27.3115 Y18.5054
G1 X27.3172 Y18.5030
G1 X27.3878 Y18.4822
G1 X27.3972 Y18.4806
G1 X31.9974 Y18.4805
G1 X32.0764 Y18.4692
G1 X32.1356 Y18.4518
G1 X32.2251 Y18.4063
G1 X32.2628 Y18.3707
G1 X32.3039 Y18.3233
G1 X32.3550 Y18.2358
G1 X32.3638 Y18.2052
G1 X32.3741 Y18.1579
G1 X32.3805 Y18.0983
G1 X32.3807 Y17.3498
G1 X32.3817 Y17.3439
G1 X32.3931 Y17.2912
G1 X32.3950 Y17.2852
G1 X32.3982 Y17.2784
G1 X32.4039 Y17.2703
G1 X32.4497 Y17.2175
G1 X32.4540 Y17.2130
G1 X32.4599 Y17.2085
G1 X32.4664 Y17.2048
G1 X32.4734 Y17.2022
G1 X32.5416 Y17.1822
G1 X32.5474 Y17.1810
G1 X32.5533 Y17.1805
G1 X33.3642 Y17.1805
G1 X33.3971 Y17.1838
G1 X33.4031 Y17.1850
G1 X33.4089 Y17.1869
G1 X33.4145 Y17.1895
G1 X33.4792 Y17.2250
G1 X33.7126 Y17.2250
G1 X33.7139 Y17.2167
G1 X33.7179 Y17.2010
G1 X33.7250 Y17.1812
G1 X33.7324 Y17.1654
G1 X33.7407 Y17.1515
G1 X33.7539 Y17.1335
G1 X33.7657 Y17.1207
G1 X33.7776 Y17.1097
G1 X33.7945 Y17.0970
G1 X33.8126 Y17.0863
G1 X33.8273 Y17.0795
G1 X33.8437 Y17.0736
G1 X33.8654 Y17.0682
G1 X33.8814 Y17.0659
G1 X33.8988 Y17.0650
G1 X34.1800 Y17.0650
G1 X34.1986 Y17.0659
G1 X34.2171 Y17.0687
G1 X34.2352 Y17.0732
G1 X34.2527 Y17.0795
G1 X34.2674 Y17.0863
G1 X34.2876 Y17.0984
G1 X34.3015 Y17.1089
G1 X34.3161 Y17.1224
G1 X34.3269 Y17.1345
G1 X34.3380 Y17.1495
G1 X34.3476 Y17.1654
G1 X34.3555 Y17.1823
G1 X34.3618 Y17.1999
G1 X34.3664 Y17.2179
G1 X34.3691 Y17.2364
G1 X34.3700 Y17.2538
G1 X34.3700 Y17.5950
G1 X34.3691 Y17.6136
G1 X34.3658 Y17.6345
G1 X34.3618 Y17.6502
G1 X34.3564 Y17.6654
G1 X34.3481 Y17.6835
G1 X34.3380 Y17.7006
G1 X34.3253 Y17.7174
G1 X34.3144 Y17.7294
G1 X34.3024 Y17.7403
G1 X34.2856 Y17.7530
G1 X34.2674 Y17.7637
G1 X34.2527 Y17.7705
G1 X34.2400 Y17.7752
G1 X34.2400 Y18.3749
G1 X34.2527 Y18.3795
G1 X34.2674 Y18.3863
G1 X34.2856 Y18.3970
G1 X34.3024 Y18.4097
G1 X34.3144 Y18.4207
G1 X34.3253 Y18.4326
G1 X34.3380 Y18.4495
G1 X34.3481 Y18.4665
G1 X34.3564 Y18.4846
G1 X34.3618 Y18.4999
G1 X34.3658 Y18.5156
G1 X34.3691 Y18.5364
G1 X34.3700 Y18.5550
G1 X34.3700 Y18.8950
G1 X34.3692 Y18.9124
G1 X34.3658 Y18.9345
G1 X34.3618 Y18.9502
G1 X34.3555 Y18.9677
G1 X34.3464 Y18.9867
G1 X34.3380 Y19.0006
G1 X34.3277 Y19.0146
G1 X34.3126 Y19.0311
G1 X34.3005 Y19.0419
G1 X34.2866 Y19.0523
G1 X34.2685 Y19.0631
G1 X34.2527 Y19.0705
G1 X34.2400 Y19.0752
G1 X34.2400 Y19.2841
G1 X34.2570 Y19.2825
G1 X34.2700 Y19.2805
G1 X34.2785 Y19.2803
G1 X34.2834 Y19.2808
G1 X34.3081 Y19.2853
G1 X34.3346 Y19.2867
G1 X34.3395 Y19.2875
G1 X34.3455 Y19.2891
G1 X34.3512 Y19.2914
G1 X34.3562 Y19.2942
G1 X34.3651 Y19.2973
G1 X34.3737 Y19.3023
G1 X34.3775 Y19.3054
G1 X34.3960 Y19.3226
G1 X34.4184 Y19.3389
G1 X34.4229 Y19.3431
G1 X34.4261 Y19.3469
G1 X34.4289 Y19.3510
G1 X34.4316 Y19.3561
G1 X34.4374 Y19.3635
G1 X34.4414 Y19.3712
G1 X34.4435 Y19.3770
G1 X34.4497 Y19.4015
G1 X34.4589 Y19.4249
G1 X34.4612 Y19.4329
G1 X34.4629 Y19.4508
G1 X34.4625 Y19.4597
G1 X34.4624 Y19.4964
G1 X34.4735 Y19.5754
G1 X34.4751 Y19.5827
G1 X34.4765 Y19.5996
G1 X34.4762 Y19.6045
G1 X34.4745 Y19.6175
G1 X34.4746 Y19.6353
G1 X34.4742 Y19.6414
G1 X34.4723 Y19.6497
G1 X34.4694 Y19.6569
G1 X34.4684 Y19.6633
G1 X34.4668 Y19.6691
G1 X34.4646 Y19.6747
G1 X34.4617 Y19.6800
G1 X34.4468 Y19.7004
G1 X34.4343 Y19.7239
G1 X34.4305 Y19.7289
G1 X34.4271 Y19.7325
G1 X34.4224 Y19.7365
G1 X34.4178 Y19.7396
G1 X34.4135 Y19.7446
G1 X34.4090 Y19.7485
G1 X34.3178 Y19.8178
G1 X34.2346 Y19.9274
G1 X34.1840 Y20.0558
G1 X34.1745 Y20.1349
G1 X34.1745 Y21.5151
G1 X34.1840 Y21.5942
G1 X34.2346 Y21.7226
G1 X34.3178 Y21.8322
G1 X34.4274 Y21.9154
G1 X34.5558 Y21.9660
G1 X34.6349 Y21.9755
G1 X35.2091 Y21.9755
G1 X35.2431 Y21.9792
G1 X35.2502 Y21.9810
G1 X35.2570 Y21.9839
G1 X35.3204 Y22.0185
G1 X35.3254 Y22.0218
G1 X35.3299 Y22.0256
G1 X36.1098 Y22.8055
G1 X36.1897 Y22.8516
G1 X36.2789 Y22.8755
G1 X42.3365 Y22.8755
G1 X42.3442 Y22.8763
G1 X42.3908 Y22.8850
G1 X42.3989 Y22.8876
G1 X42.4076 Y22.8924
G1 X42.4652 Y22.9361
G1 X42.4697 Y22.9399
G1 X42.4745 Y22.9452
G1 X42.5043 Y22.9857
G1 X42.5978 Y23.0547
G1 X42.7089 Y23.0935
G1 X42.7299 Y23.0955
G1 X43.1001 Y23.0955
G1 X43.1211 Y23.0935
G1 X43.2322 Y23.0547
G1 X43.3230 Y22.9877
G1 X43.3393 Y22.9772
G1 X43.3448 Y22.9743
G1 X43.3495 Y22.9724
G1 X43.3543 Y22.9711
G1 X43.4225 Y22.9558
G1 X43.4286 Y22.9548
G1 X43.4336 Y22.9546
G1 X43.4410 Y22.9551
G1 X43.4494 Y22.9572
G1 X43.5162 Y22.9816
G1 X43.5227 Y22.9845
G1 X43.5288 Y22.9883
G1 X43.6181 Y23.0542
G1 X43.7290 Y23.0930
G1 X43.7350 Y23.0936
G1 X43.7350 Y22.8831
G1 X43.7281 Y22.8804
G1 X43.7117 Y22.8726
G1 X43.6972 Y22.8638
G1 X43.6836 Y22.8538
G1 X43.6675 Y22.8390
G1 X43.6570 Y22.8274
G1 X43.6469 Y22.8138
G1 X43.6358 Y22.7950
G1 X43.6291 Y22.7808
G1 X43.6230 Y22.7637
G1 X43.6181 Y22.7437
G1 X43.6159 Y22.7281
G1 X43.6150 Y22.7100
G1 X43.6150 Y22.3400
G1 X43.6159 Y22.3219
G1 X43.6181 Y22.3063
G1 X43.6230 Y22.2863
G1 X43.6301 Y22.2670
G1 X43.6369 Y22.2528
G1 X43.6449 Y22.2393
G1 X43.6570 Y22.2226
G1 X43.6710 Y22.2075
G1 X43.6826 Y22.1970
G1 X43.6962 Y22.1869
G1 X43.7139 Y22.1763
G1 X43.7281 Y22.1696
G1 X43.7350 Y22.1670
G1 X43.7350 Y21.9564
G1 X43.7290 Y21.9570
G1 X43.6181 Y21.9958
G1 X43.5279 Y22.0623
G1 X43.5116 Y22.0729
G1 X43.5049 Y22.0763
G1 X43.4966 Y22.0789
G1 X43.4272 Y22.0945
G1 X43.4198 Y22.0954
G1 X43.4136 Y22.0953
G1 X43.4074 Y22.0944
G1 X43.4014 Y22.0928
G1 X43.3303 Y22.0666
G1 X43.3221 Y22.0617
G1 X43.2962 Y22.0426
G1 X43.2916 Y22.0388
G1 X43.2639 Y22.0113
G1 X43.2599 Y22.0064
G1 X43.2515 Y21.9939
G1 X43.2480 Y21.9860
G1 X43.2392 Y21.9565
G1 X43.2287 Y21.9289
G1 X43.2266 Y21.9205
G1 X43.2260 Y21.9155
G1 X43.2255 Y21.9026
G1 X43.2256 Y20.0332
G1 X43.2269 Y20.0237
G1 X43.2442 Y19.9601
G1 X43.2462 Y19.9541
G1 X43.2489 Y19.9485
G1 X43.2530 Y19.9423
G1 X43.2572 Y19.9376
G1 X43.3098 Y19.8880
G1 X43.3144 Y19.8843
G1 X43.3205 Y19.8806
G1 X43.4623 Y19.8084
G1 X43.6050 Y19.7047
G1 X43.7297 Y19.5800
G1 X43.8333 Y19.4373
G1 X43.9134 Y19.2801
G1 X43.9679 Y19.1124
G1 X43.9955 Y18.9382
G1 X43.9955 Y18.3118
G1 X43.9663 Y18.1269
G1 X43.9662 Y18.1211
G1 X43.9676 Y18.0729
G1 X43.9687 Y18.0655
G1 X43.9714 Y18.0573
G1 X44.0076 Y17.9905
G1 X44.0116 Y17.9846
G1 X44.0156 Y17.9801
G1 X47.4055 Y14.5902
G1 X47.4516 Y14.5103
G1 X47.4755 Y14.4212
G1 X47.4757 Y6.5317
G1 X47.4766 Y6.5246
G1 X47.4781 Y6.5188
G1 X47.5021 Y6.4506
G1 X47.5066 Y6.4417
G1 X47.5127 Y6.4339
G1 X47.5182 Y6.4289
G1 X47.5733 Y6.3860
G1 X47.5782 Y6.3826
G1 X47.5857 Y6.3789
G1 X47.6378 Y6.3584
G1 X47.7419 Y6.2794
G1 X47.8209 Y6.1753
G1 X47.8690 Y6.0532
G1 X47.8780 Y5.9782
G1 X47.8780 Y5.1519
G1 X47.8690 Y5.0768
G1 X47.8209 Y4.9548
G1 X47.7419 Y4.8506
G1 X47.6378 Y4.7716
G1 X47.5157 Y4.7235
G1 X47.4407 Y4.7145
G1 X46.9144 Y4.7145
G1 X46.8393 Y4.7235
G1 X46.7173 Y4.7716
G1 X46.6131 Y4.8506
G1 X46.5341 Y4.9548
G1 X46.4860 Y5.0768
G1 X46.4770 Y5.1519
G1 X46.4770 Y5.9782
G1 X46.4860 Y6.0532
G1 X46.5341 Y6.1753
G1 X46.6131 Y6.2794
G1 X46.7076 Y6.3511
G1 X46.7121 Y6.3555
G1 X46.7415 Y6.3872
G1 X46.7467 Y6.3939
G1 X46.7503 Y6.4003
G1 X46.7528 Y6.4071
G1 X46.7728 Y6.4753
G1 X46.7740 Y6.4811
G1 X46.7745 Y6.4870
G1 X46.7745 Y14.1578
G1 X46.7742 Y14.1631
G1 X46.7711 Y14.1919
G1 X46.7697 Y14.1979
G1 X46.7677 Y14.2037
G1 X46.7315 Y14.2704
G1 X46.7275 Y14.2763
G1 X46.7235 Y14.2808
G1 X43.6182 Y17.3862
G1 X43.6037 Y17.3991
G1 X43.5987 Y17.4027
G1 X43.5922 Y17.4061
G1 X43.5240 Y17.4337
G1 X43.5180 Y17.4354
G1 X43.5119 Y17.4363
G1 X43.5057 Y17.4365
G1 X43.4983 Y17.4357
G1 X43.4296 Y17.4228
G1 X43.4216 Y17.4205
G1 X43.4161 Y17.4182
G1 X43.3051 Y17.3616
G1 X43.1374 Y17.3071
G1 X42.9632 Y17.2795
G1 X42.7868 Y17.2795
G1 X42.6126 Y17.3071
G1 X42.4449 Y17.3616
G1 X42.2877 Y17.4417
G1 X42.1451 Y17.5453
G1 X42.0203 Y17.6701
G1 X41.9167 Y17.8127
G1 X41.8366 Y17.9699
G1 X41.7821 Y18.1376
G1 X41.7767 Y18.1719
G1 X41.7748 Y18.1790
G1 X41.7431 Y18.2484
G1 X41.7405 Y18.2524
G1 X41.7367 Y18.2571
G1 X41.7295 Y18.2636
G1 X41.6693 Y18.3036
G1 X41.6628 Y18.3072
G1 X41.6570 Y18.3095
G1 X41.6510 Y18.3110
G1 X41.6448 Y18.3118
G1 X41.5713 Y18.3129
G1 X41.5638 Y18.3123
G1 X41.5566 Y18.3106
G1 X41.5519 Y18.3088
G1 X41.5464 Y18.3060
G1 X41.4850 Y18.2678
G1 X41.4782 Y18.2624
G1 X41.4724 Y18.2559
G1 X41.4673 Y18.2474
G1 X41.4374 Y18.1843
G1 X41.4351 Y18.1788
G1 X41.4334 Y18.1718
G1 X41.4279 Y18.1376
G1 X41.3734 Y17.9699
G1 X41.2933 Y17.8127
G1 X41.1897 Y17.6701
G1 X41.0650 Y17.5453
G1 X40.9223 Y17.4417
G1 X40.7651 Y17.3616
G1 X40.5974 Y17.3071
G1 X40.4232 Y17.2795
G1 X40.2468 Y17.2795
G1 X40.0726 Y17.3071
G1 X39.9049 Y17.3616
G1 X39.7477 Y17.4417
G1 X39.6051 Y17.5453
G1 X39.4803 Y17.6701
G1 X39.3767 Y17.8127
G1 X39.2966 Y17.9699
G1 X39.2850 Y18.0056
G1 X39.2789 Y18.0213
G1 X39.2762 Y18.0268
G1 X39.2705 Y18.0348
G1 X39.2213 Y18.0912
G1 X39.2176 Y18.0944
G1 X39.2124 Y18.0979
G1 X39.2034 Y18.1020
G1 X39.1340 Y18.1225
G1 X39.1271 Y18.1240
G1 X39.1199 Y18.1245
G1 X39.0859 Y18.1244
G1 X39.0462 Y18.1188
G1 X39.0389 Y18.1170
G1 X39.0342 Y18.1151
G1 X39.0292 Y18.1126
G1 X39.0237 Y18.1112
G1 X39.0190 Y18.1096
G1 X39.0113 Y18.1056
G1 X39.0062 Y18.1019
G1 X38.9880 Y18.0861
G1 X38.9677 Y18.0731
G1 X38.9638 Y18.0701
G1 X38.9568 Y18.0630
G1 X38.9539 Y18.0590
G1 X38.9511 Y18.0541
G1 X38.9449 Y18.0471
G1 X38.9409 Y18.0408
G1 X38.9384 Y18.0352
G1 X38.9308 Y18.0097
G1 X38.9195 Y17.9843
G1 X38.9178 Y17.9783
G1 X38.9169 Y17.9722
G1 X38.9171 Y17.9628
G1 X38.9159 Y17.9564
G1 X38.9155 Y17.9505
G1 X38.9155 Y17.7399
G1 X38.9060 Y17.6608
G1 X38.8554 Y17.5324
G1 X38.7722 Y17.4228
G1 X38.6626 Y17.3396
G1 X38.5342 Y17.2890
G1 X38.4551 Y17.2795
G1 X38.3148 Y17.2793
G1 X38.3089 Y17.2784
G1 X38.2562 Y17.2669
G1 X38.2502 Y17.2650
G1 X38.2456 Y17.2630
G1 X38.2402 Y17.2599
G1 X38.2362 Y17.2569
G1 X38.1825 Y17.2103
G1 X38.1772 Y17.2051
G1 X38.1735 Y17.2001
G1 X38.1698 Y17.1936
G1 X38.1676 Y17.1878
G1 X38.1467 Y17.1161
G1 X38.1459 Y17.1114
G1 X38.1455 Y17.1055
G1 X38.1457 Y15.2040
G1 X38.1549 Y15.1524
G1 X38.1572 Y15.1453
G1 X38.1604 Y15.1387
G1 X38.1638 Y15.1336
G1 X38.1873 Y15.1026
G1 X38.1902 Y15.0955
G1 X38.1947 Y15.0882
G1 X38.1978 Y15.0844
G1 X38.2034 Y15.0787
G1 X38.2747 Y14.9822
G1 X38.3135 Y14.8711
G1 X38.3155 Y14.8501
G1 X38.3155 Y14.3799
G1 X38.3135 Y14.3589
G1 X38.2747 Y14.2478
G1 X38.2057 Y14.1543
G1 X38.1993 Y14.1494
G1 X38.1943 Y14.1442
G1 X38.1818 Y14.1284
G1 X38.1739 Y14.1173
G1 X38.1708 Y14.1121
G1 X38.1672 Y14.1032
G1 X38.1475 Y14.0362
G1 X38.1464 Y14.0316
G1 X38.1456 Y14.0257
G1 X38.1455 Y12.7351
G1 X38.1458 Y12.7248
G1 X38.1469 Y12.7177
G1 X38.1485 Y12.7120
G1 X38.1726 Y12.6437
G1 X38.1772 Y12.6350
G1 X38.1835 Y12.6273
G1 X38.1882 Y12.6232
G1 X38.2443 Y12.5796
G1 X38.2492 Y12.5763
G1 X38.2552 Y12.5734
G1 X38.3594 Y12.4944
G1 X38.4323 Y12.3982
G1 X38.4451 Y12.3834
G1 X38.4506 Y12.3783
G1 X38.4579 Y12.3734
G1 X38.5201 Y12.3389
G1 X38.5293 Y12.3352
G1 X38.5390 Y12.3334
G1 X38.5465 Y12.3333
G1 X38.6199 Y12.3383
G1 X38.6260 Y12.3395
G1 X38.6307 Y12.3410
G1 X38.6364 Y12.3436
G1 X38.6416 Y12.3468
G1 X38.6988 Y12.3891
G1 X38.7051 Y12.3946
G1 X38.7090 Y12.3991
G1 X38.7810 Y12.4940
G1 X38.8850 Y12.5729
G1 X39.0069 Y12.6210
G1 X39.0819 Y12.6300
G1 X39.1450 Y12.6300
G1 X39.1450 Y12.4300
G1 X39.1188 Y12.4300
G1 X39.0943 Y12.4288
G1 X39.0688 Y12.4251
G1 X39.0402 Y12.4182
G1 X39.0171 Y12.4100
G1 X38.9904 Y12.3975
G1 X38.9672 Y12.3837
G1 X38.9456 Y12.3676
G1 X38.9273 Y12.3512
G1 X38.9074 Y12.3295
G1 X38.8914 Y12.3078
G1 X38.8775 Y12.2846
G1 X38.8659 Y12.2603
G1 X38.8569 Y12.2348
G1 X38.8503 Y12.2087
G1 X38.8463 Y12.1820
G1 X38.8450 Y12.1550
G1 X38.8450 Y11.6538
G1 X38.8463 Y11.6281
G1 X38.8499 Y11.6038
G1 X38.8569 Y11.5752
G1 X38.8659 Y11.5498
G1 X38.8775 Y11.5254
G1 X38.8914 Y11.5022
G1 X38.9059 Y11.4825
G1 X38.9273 Y11.4589
G1 X38.9456 Y11.4424
G1 X38.9672 Y11.4264
G1 X38.9904 Y11.4125
G1 X39.0125 Y11.4019
G1 X39.0425 Y11.3912
G1 X39.0664 Y11.3853
G1 X39.0931 Y11.3813
G1 X39.1188 Y11.3800
G1 X39.1450 Y11.3800
G1 X39.1450 Y11.1800
G1 X39.0819 Y11.1800
G1 X39.0069 Y11.1890
G1 X38.8850 Y11.2371
G1 X38.7810 Y11.3160
G1 X38.7083 Y11.4118
G1 X38.6947 Y11.4275
G1 X38.6900 Y11.4318
G1 X38.6860 Y11.4347
G1 X38.6206 Y11.4711
G1 X38.6149 Y11.4736
G1 X38.6090 Y11.4755
G1 X38.6016 Y11.4766
G1 X38.5954 Y11.4768
G1 X38.5232 Y11.4720
G1 X38.5171 Y11.4711
G1 X38.5111 Y11.4694
G1 X38.5065 Y11.4675
G1 X38.5011 Y11.4646
G1 X38.4390 Y11.4187
G1 X38.4356 Y11.4155
G1 X38.4317 Y11.4109
G1 X38.3594 Y11.3156
G1 X38.2552 Y11.2366
G1 X38.2452 Y11.2322
G1 X38.2371 Y11.2271
G1 X38.1789 Y11.1763
G1 X38.1756 Y11.1726
G1 X38.1722 Y11.1674
G1 X38.1680 Y11.1584
G1 X38.1472 Y11.0879
G1 X38.1460 Y11.0821
G1 X38.1456 Y11.0773
G1 X38.1455 Y9.9583
G1 X38.1464 Y9.9500
G1 X38.1579 Y9.8974
G1 X38.1609 Y9.8879
G1 X38.1645 Y9.8813
G1 X38.1689 Y9.8753
G1 X38.2155 Y9.8215
G1 X38.2200 Y9.8172
G1 X38.2239 Y9.8142
G1 X38.2303 Y9.8104
G1 X38.2372 Y9.8076
G1 X38.3054 Y9.7875
G1 X38.3112 Y9.7862
G1 X38.3183 Y9.7855
G1 X38.5219 Y9.7855
G1 X38.5440 Y9.7834
G1 X38.6593 Y9.7431
G1 X38.7564 Y9.6714
G1 X38.8281 Y9.5743
G1 X38.8684 Y9.4590
G1 X38.8705 Y9.4369
G1 X38.8705 Y9.0331
G1 X38.8684 Y9.0111
G1 X38.8281 Y8.8958
G1 X38.7564 Y8.7986
G1 X38.6760 Y8.7392
G1 X38.6584 Y8.7241
G1 X38.6534 Y8.7188
G1 X38.6480 Y8.7108
G1 X38.6138 Y8.6470
G1 X38.6115 Y8.6412
G1 X38.6102 Y8.6364
G1 X38.6092 Y8.6303
G1 X38.6090 Y8.6254
G1 X38.6148 Y8.5495
G1 X38.6171 Y8.5399
G1 X38.6212 Y8.5308
G1 X38.6246 Y8.5257
G1 X38.6669 Y8.4700
G1 X38.6724 Y8.4638
G1 X38.6770 Y8.4600
G1 X38.7564 Y8.4014
G1 X38.8281 Y8.3043
G1 X38.8684 Y8.1890
G1 X38.8705 Y8.1669
G1 X38.8705 Y7.7631
G1 X38.8684 Y7.7411
G1 X38.8281 Y7.6258
G1 X38.7564 Y7.5286
G1 X38.6760 Y7.4692
G1 X38.6584 Y7.4541
G1 X38.6534 Y7.4488
G1 X38.6480 Y7.4408
G1 X38.6138 Y7.3770
G1 X38.6115 Y7.3712
G1 X38.6102 Y7.3664
G1 X38.6092 Y7.3603
G1 X38.6090 Y7.3554
G1 X38.6148 Y7.2795
G1 X38.6171 Y7.2699
G1 X38.6212 Y7.2608
G1 X38.6246 Y7.2557
G1 X38.6669 Y7.2000
G1 X38.6724 Y7.1938
G1 X38.6770 Y7.1900
G1 X38.7564 Y7.1314
G1 X38.8281 Y7.0343
G1 X38.8684 Y6.9190
G1 X38.8705 Y6.8969
G1 X38.8705 Y6.4931
G1 X38.8684 Y6.4711
G1 X38.8281 Y6.3558
G1 X38.7564 Y6.2586
G1 X38.6755 Y6.1989
G1 X38.6580 Y6.1838
G1 X38.6530 Y6.1785
G1 X38.6476 Y6.1704
G1 X38.6134 Y6.1067
G1 X38.6111 Y6.1009
G1 X38.6098 Y6.0961
G1 X38.6089 Y6.0912
G1 X38.6086 Y6.0851
G1 X38.6144 Y6.0092
G1 X38.6167 Y5.9995
G1 X38.6208 Y5.9905
G1 X38.6242 Y5.9853
G1 X38.6664 Y5.9297
G1 X38.6720 Y5.9235
G1 X38.6766 Y5.9197
G1 X38.7560 Y5.8611
G1 X38.8277 Y5.7640
G1 X38.8679 Y5.6489
G1 X38.8700 Y5.6250
G1 X38.6635 Y5.6250
G1 X38.6610 Y5.6342
G1 X38.6543 Y5.6527
G1 X38.6464 Y5.6693
G1 X38.6370 Y5.6851
G1 X38.6230 Y5.7037
G1 X38.6114 Y5.7164
G1 X38.5959 Y5.7304
G1 X38.5811 Y5.7413
G1 X38.5643 Y5.7514
G1 X38.5465 Y5.7598
G1 X38.5304 Y5.7656
G1 X38.5066 Y5.7716
G1 X38.4896 Y5.7740
G1 X38.4700 Y5.7750
G1 X37.1200 Y5.7750
G1 X37.1016 Y5.7742
G1 X37.0786 Y5.7706
G1 X37.0620 Y5.7664
G1 X37.0435 Y5.7598
G1 X37.0257 Y5.7514
G1 X37.0110 Y5.7426
G1 X36.9922 Y5.7288
G1 X36.9786 Y5.7164
G1 X36.9670 Y5.7037
G1 X36.9530 Y5.6851
G1 X36.9436 Y5.6693
G1 X36.9357 Y5.6527
G1 X36.9290 Y5.6342
G1 X36.9265 Y5.6250
G1 X36.7200 Y5.6250
G1 X36.7221 Y5.6489
G1 X36.7624 Y5.7640
G1 X36.8340 Y5.8611
G1 X36.9165 Y5.9220
G1 X36.9338 Y5.9373
G1 X36.9378 Y5.9419
G1 X36.9406 Y5.9458
G1 X36.9537 Y5.9700
G1 X36.9684 Y5.9904
G1 X36.9721 Y5.9968
G1 X36.9748 Y6.0037
G1 X36.9768 Y6.0131
G1 X36.9797 Y6.0209
G1 X36.9812 Y6.0294
G1 X36.9814 Y6.0368
G1 X36.9794 Y6.0619
G1 X36.9808 Y6.0894
G1 X36.9800 Y6.0968
G1 X36.9786 Y6.1029
G1 X36.9755 Y6.1106
G1 X36.9744 Y6.1163
G1 X36.9729 Y6.1210
G1 X36.9710 Y6.1256
G1 X36.9680 Y6.1310
G1 X36.9514 Y6.1531
G1 X36.9383 Y6.1758
G1 X36.9325 Y6.1833
G1 X36.9210 Y6.1941
G1 X36.8336 Y6.2586
G1 X36.7842 Y6.3256
G1 X36.7802 Y6.3301
G1 X36.7701 Y6.3398
G1 X36.7392 Y6.3629
G1 X36.6498 Y6.4145
G1 X35.3558 Y7.7085
G1 X35.3518 Y7.7121
G1 X35.3292 Y7.7303
G1 X35.3241 Y7.7335
G1 X35.3185 Y7.7362
G1 X35.2457 Y7.7578
G1 X35.2399 Y7.7590
G1 X35.2351 Y7.7595
G1 X34.2849 Y7.7595
G1 X34.2058 Y7.7690
G1 X34.0774 Y7.8196
G1 X33.9678 Y7.9028
G1 X33.8846 Y8.0124
G1 X33.8340 Y8.1408
G1 X33.8245 Y8.2199
G1 X33.8244 Y8.8057
G1 X33.8232 Y8.8145
G1 X33.8071 Y8.8770
G1 X33.8040 Y8.8850
G1 X33.8004 Y8.8913
G1 X33.7941 Y8.8989
G1 X33.7435 Y8.9488
G1 X33.7377 Y8.9535
G1 X33.7324 Y8.9567
G1 X33.7267 Y8.9592
G1 X33.7208 Y8.9610
G1 X33.6512 Y8.9757
G1 X33.6438 Y8.9767
G1 X33.6352 Y8.9765
G1 X33.6291 Y8.9754
G1 X33.6231 Y8.9735
G1 X33.5578 Y8.9487
G1 X33.5514 Y8.9457
G1 X33.5454 Y8.9418
G1 X33.4600 Y8.8771
G1 X33.3381 Y8.8290
G1 X33.2631 Y8.8200
G1 X33.2000 Y8.8200
G1 X33.2000 Y9.0200
G1 X33.2262 Y9.0200
G1 X33.2507 Y9.0212
G1 X33.2762 Y9.0249
G1 X33.3048 Y9.0319
G1 X33.3291 Y9.0405
G1 X33.3546 Y9.0525
G1 X33.3778 Y9.0664
G1 X33.3995 Y9.0824
G1 X33.4212 Y9.1023
G1 X33.4391 Y9.1225
G1 X33.4537 Y9.1422
G1 X33.4663 Y9.1632
G1 X33.4791 Y9.1898
G1 X33.4878 Y9.2140
G1 X33.4947 Y9.2414
G1 X33.4987 Y9.2681
G1 X33.5000 Y9.2938
G1 X33.5000 Y9.3450
G1 X33.7000 Y9.3450
G1 X33.7000 Y9.3133
G1 X33.7004 Y9.3082
G1 X33.7013 Y9.3032
G1 X33.7182 Y9.2384
G1 X33.7222 Y9.2295
G1 X33.7279 Y9.2215
G1 X33.7810 Y9.1689
G1 X33.7868 Y9.1642
G1 X33.7921 Y9.1610
G1 X33.7990 Y9.1580
G1 X33.8049 Y9.1564
G1 X33.8733 Y9.1420
G1 X33.8819 Y9.1409
G1 X33.8918 Y9.1416
G1 X33.9002 Y9.1437
G1 X33.9667 Y9.1690
G1 X33.9732 Y9.1720
G1 X33.9791 Y9.1759
G1 X34.0774 Y9.2504
G1 X34.2058 Y9.3010
G1 X34.2849 Y9.3105
G1 X35.7651 Y9.3105
G1 X35.8442 Y9.3010
G1 X35.9089 Y9.2756
G1 X35.9400 Y9.2672
G1 X35.9475 Y9.2658
G1 X35.9525 Y9.2655
G1 X35.9587 Y9.2659
G1 X36.0291 Y9.2760
G1 X36.0364 Y9.2776
G1 X36.0434 Y9.2802
G1 X36.0488 Y9.2832
G1 X36.0548 Y9.2877
G1 X36.1085 Y9.3343
G1 X36.1128 Y9.3387
G1 X36.1166 Y9.3437
G1 X36.1202 Y9.3502
G1 X36.1224 Y9.3559
G1 X36.1425 Y9.4242
G1 X36.1443 Y9.4335
G1 X36.1444 Y10.3797
G1 X36.1411 Y10.4112
G1 X36.1397 Y10.4172
G1 X36.1377 Y10.4230
G1 X36.1021 Y10.4887
G1 X36.0996 Y10.4928
G1 X36.0960 Y10.4975
G1 X35.7341 Y10.8595
G1 X35.7085 Y10.8803
G1 X35.7023 Y10.8841
G1 X35.6955 Y10.8871
G1 X35.6250 Y10.9078
G1 X35.6192 Y10.9090
G1 X35.6132 Y10.9095
G1 X34.2849 Y10.9095
G1 X34.2058 Y10.9190
G1 X34.0774 Y10.9696
G1 X33.9678 Y11.0528
G1 X33.8806 Y11.1676
G1 X33.8763 Y11.1721
G1 X33.8418 Y11.2039
G1 X33.8347 Y11.2086
G1 X33.8258 Y11.2124
G1 X33.7565 Y11.2328
G1 X33.7518 Y11.2338
G1 X33.7459 Y11.2345
G1 X33.3840 Y11.2345
G1 X33.3707 Y11.2340
G1 X33.3611 Y11.2320
G1 X33.3135 Y11.2147
G1 X33.3083 Y11.2138
G1 X33.3024 Y11.2121
G1 X33.2979 Y11.2103
G1 X33.2908 Y11.2066
G1 X33.1761 Y11.1665
G1 X33.1551 Y11.1645
G1 X33.0697 Y11.1644
G1 X33.0383 Y11.1609
G1 X33.0301 Y11.1586
G1 X33.0234 Y11.1556
G1 X32.9610 Y11.1215
G1 X32.9560 Y11.1182
G1 X32.9515 Y11.1144
G1 X32.3113 Y10.4742
G1 X32.2960 Y10.4566
G1 X32.2925 Y10.4518
G1 X32.2881 Y10.4432
G1 X32.2637 Y10.3765
G1 X32.2619 Y10.3705
G1 X32.2608 Y10.3632
G1 X32.2608 Y10.3557
G1 X32.2616 Y10.3496
G1 X32.2774 Y10.2790
G1 X32.2793 Y10.2731
G1 X32.2819 Y10.2674
G1 X32.2852 Y10.2622
G1 X32.2899 Y10.2564
G1 X32.3423 Y10.2047
G1 X32.3503 Y10.1989
G1 X32.3593 Y10.1947
G1 X32.3653 Y10.1931
G1 X32.4349 Y10.1784
G1 X32.4435 Y10.1776
G1 X32.4522 Y10.1783
G1 X32.4618 Y10.1808
G1 X32.5282 Y10.2061
G1 X32.5346 Y10.2093
G1 X32.5400 Y10.2129
G1 X32.6619 Y10.2610
G1 X32.7369 Y10.2700
G1 X32.8000 Y10.2700
G1 X32.8000 Y10.0700
G1 X32.7738 Y10.0700
G1 X32.7493 Y10.0688
G1 X32.7238 Y10.0651
G1 X32.6952 Y10.0582
G1 X32.6721 Y10.0500
G1 X32.6454 Y10.0375
G1 X32.6222 Y10.0237
G1 X32.6006 Y10.0076
G1 X32.5823 Y9.9912
G1 X32.5624 Y9.9695
G1 X32.5464 Y9.9478
G1 X32.5325 Y9.9246
G1 X32.5209 Y9.9003
G1 X32.5119 Y9.8748
G1 X32.5053 Y9.8487
G1 X32.5013 Y9.8220
G1 X32.5000 Y9.7950
G1 X32.5000 Y9.2938
G1 X32.5013 Y9.2681
G1 X32.5049 Y9.2438
G1 X32.5119 Y9.2152
G1 X32.5209 Y9.1898
G1 X32.5325 Y9.1654
G1 X32.5464 Y9.1422
G1 X32.5609 Y9.1225
G1 X32.5823 Y9.0989
G1 X32.6006 Y9.0824
G1 X32.6222 Y9.0664
G1 X32.6454 Y9.0525
G1 X32.6675 Y9.0419
G1 X32.6975 Y9.0312
G1 X32.7214 Y9.0253
G1 X32.7481 Y9.0213
G1 X32.7738 Y9.0200
G1 X32.8000 Y9.0200
G1 X32.8000 Y8.8200
G1 X32.7369 Y8.8200
G1 X32.6619 Y8.8290
G1 X32.5400 Y8.8771
G1 X32.4360 Y8.9560
G1 X32.3640 Y9.0509
G1 X32.3593 Y9.0568
G1 X32.3497 Y9.0675
G1 X32.3450 Y9.0718
G1 X32.3410 Y9.0747
G1 X32.3145 Y9.0896
G1 X32.2904 Y9.1061
G1 X32.2850 Y9.1090
G1 X32.2780 Y9.1116
G1 X32.2715 Y9.1130
G1 X32.2628 Y9.1157
G1 X32.2529 Y9.1168
G1 X32.2226 Y9.1150
G1 X32.1947 Y9.1159
G1 X32.1885 Y9.1155
G1 X32.1800 Y9.1138
G1 X32.1738 Y9.1114
G1 X32.1661 Y9.1094
G1 X32.1604 Y9.1070
G1 X32.1540 Y9.1032
G1 X32.1316 Y9.0866
G1 X32.1067 Y9.0717
G1 X32.1019 Y9.0681
G1 X32.0984 Y9.0648
G1 X32.0904 Y9.0558
G1 X32.0144 Y8.9556
G1 X31.9607 Y8.9149
G1 X31.9560 Y8.9108
G1 X31.9454 Y8.8994
G1 X31.9299 Y8.8795
G1 X31.9260 Y8.8732
G1 X31.9230 Y8.8663
G1 X31.9022 Y8.7958
G1 X31.9012 Y8.7911
G1 X31.9006 Y8.7852
G1 X31.9005 Y8.4187
G1 X31.9038 Y8.3858
G1 X31.9056 Y8.3774
G1 X31.9089 Y8.3695
G1 X31.9435 Y8.3060
G1 X31.9468 Y8.3010
G1 X31.9506 Y8.2965
G1 X33.3707 Y6.8765
G1 X33.3953 Y6.8563
G1 X33.4013 Y6.8521
G1 X33.4057 Y6.8498
G1 X33.4114 Y6.8476
G1 X33.4796 Y6.8275
G1 X33.4866 Y6.8260
G1 X33.4925 Y6.8255
G1 X34.4351 Y6.8255
G1 X34.5142 Y6.8160
G1 X34.6426 Y6.7654
G1 X34.7522 Y6.6822
G1 X34.8354 Y6.5726
G1 X34.8860 Y6.4442
G1 X34.8955 Y6.3651
G1 X34.8955 Y5.1849
G1 X34.8860 Y5.1058
G1 X34.8354 Y4.9774
G1 X34.7522 Y4.8678
G1 X34.6426 Y4.7846
G1 X34.5142 Y4.7340
G1 X34.4351 Y4.7245
G1 X33.2549 Y4.7245
G1 X33.1758 Y4.7340
G1 X33.0474 Y4.7846
G1 X32.9378 Y4.8678
G1 X32.8546 Y4.9774
G1 X32.8040 Y5.1058
G1 X32.7945 Y5.1849
G1 X32.7945 Y6.1063
G1 X32.7942 Y6.1117
G1 X32.7911 Y6.1405
G1 X32.7894 Y6.1476
G1 X32.7867 Y6.1545
G1 X32.7515 Y6.2190
G1 X32.7482 Y6.2240
G1 X32.7435 Y6.2294
G1 X31.0895 Y7.8834
G1 X31.0302 Y7.9861
G1 X30.9995 Y8.1007
G1 X30.9995 Y8.7841
G1 X30.9987 Y8.7916
G1 X30.9901 Y8.8389
G1 X30.9871 Y8.8468
G1 X30.9829 Y8.8542
G1 X30.9392 Y8.9132
G1 X30.9352 Y8.9176
G1 X30.9316 Y8.9207
G1 X30.8856 Y8.9556
G1 X30.8066 Y9.0598
G1 X30.7585 Y9.1818
G1 X30.7495 Y9.2569
G1 X30.7495 Y9.3338
G1 X30.7491 Y9.3456
G1 X30.7486 Y9.3505
G1 X30.7460 Y9.3601
G1 X30.7212 Y9.4267
G1 X30.7185 Y9.4323
G1 X30.7152 Y9.4375
G1 X30.7104 Y9.4432
G1 X30.7057 Y9.4473
G1 X30.6468 Y9.4914
G1 X30.6381 Y9.4961
G1 X30.6334 Y9.4978
G1 X30.6273 Y9.4992
G1 X30.5515 Y9.5049
G1 X30.5440 Y9.5047
G1 X30.5379 Y9.5036
G1 X30.5308 Y9.5014
G1 X30.5252 Y9.4988
G1 X30.4628 Y9.4647
G1 X30.4579 Y9.4615
G1 X30.4533 Y9.4576
G1 X28.6065 Y7.6108
G1 X28.5863 Y7.5862
G1 X28.5827 Y7.5812
G1 X28.5793 Y7.5747
G1 X28.5772 Y7.5689
G1 X28.5572 Y7.5007
G1 X28.5560 Y7.4949
G1 X28.5555 Y7.4889
G1 X28.5555 Y6.1630
G1 X28.5538 Y6.1483
G1 X28.5153 Y6.0610
G1 X28.4490 Y5.9948
G1 X28.3617 Y5.9562
G1 X28.3470 Y5.9545
G1 X26.6630 Y5.9545
G1 X26.6483 Y5.9562
G1 X26.5610 Y5.9948
G1 X26.4948 Y6.0610
G1 X26.4562 Y6.1483
G1 X26.4545 Y6.1630
G1 X26.4545 Y7.8470
G1 X26.4562 Y7.8617
G1 X26.4948 Y7.9490
G1 X26.5610 Y8.0153
G1 X26.6483 Y8.0538
G1 X26.6630 Y8.0555
G1 X27.9891 Y8.0555
G1 X28.0219 Y8.0590
G1 X28.0279 Y8.0603
G1 X28.0325 Y8.0619
G1 X28.0381 Y8.0645
G1 X28.1015 Y8.0991
G1 X28.1063 Y8.1025
G1 X28.1108 Y8.1065
G1 X30.1735 Y10.1692
G1 X30.1945 Y10.1948
G1 X30.1991 Y10.2021
G1 X30.2028 Y10.2111
G1 X30.2225 Y10.2782
G1 X30.2236 Y10.2828
G1 X30.2244 Y10.2887
G1 X30.2245 Y10.4276
G1 X30.2190 Y10.4672
G1 X30.2170 Y10.4758
G1 X30.2129 Y10.4878
G1 X30.2090 Y10.4955
G1 X30.1891 Y10.5221
G1 X30.1709 Y10.5500
G1 X30.1649 Y10.5563
G1 X30.1548 Y10.5645
G1 X30.1143 Y10.5943
G1 X30.0453 Y10.6878
G1 X30.0065 Y10.7989
G1 X30.0045 Y10.8199
G1 X30.0045 Y11.1901
G1 X30.0065 Y11.2111
G1 X30.0453 Y11.3222
G1 X30.1120 Y11.4126
G1 X30.1225 Y11.4289
G1 X30.1255 Y11.4344
G1 X30.1273 Y11.4391
G1 X30.1286 Y11.4439
G1 X30.1439 Y11.5121
G1 X30.1449 Y11.5182
G1 X30.1451 Y11.5231
G1 X30.1444 Y11.5318
G1 X30.1425 Y11.5390
G1 X30.1181 Y11.6058
G1 X30.1152 Y11.6123
G1 X30.1114 Y11.6183
G1 X30.0453 Y11.7078
G1 X30.0065 Y11.8189
G1 X30.0045 Y11.8399
G1 X30.0045 Y12.2101
G1 X30.0065 Y12.2311
G1 X30.0453 Y12.3422
G1 X30.1143 Y12.4357
G1 X30.1844 Y12.4874
G1 X30.1970 Y12.4978
G1 X30.2020 Y12.5030
G1 X30.2061 Y12.5088
G1 X30.2431 Y12.5695
G1 X30.2462 Y12.5759
G1 X30.2484 Y12.5826
G1 X30.2945 Y12.6626
G1 X30.3901 Y12.7584
G1 X30.3940 Y12.7635
G1 X30.4217 Y12.8058
G1 X30.4253 Y12.8122
G1 X30.4279 Y12.8191
G1 X30.4296 Y12.8275
G1 X30.4361 Y12.9031
G1 X30.4354 Y12.9113
G1 X30.4233 Y12.9722
G1 X30.4233 Y13.1200
G1 X30.4521 Y13.2650
G1 X30.5087 Y13.4016
G1 X30.5908 Y13.5245
G1 X30.6199 Y13.5538
G1 X30.6400 Y13.5791
G1 X30.6440 Y13.5854
G1 X30.6462 Y13.5899
G1 X30.6479 Y13.5947
G1 X30.6673 Y13.6657
G1 X30.6682 Y13.6718
G1 X30.6685 Y13.6767
G1 X30.6681 Y13.6829
G1 X30.6672 Y13.6878
G1 X30.6453 Y13.7581
G1 X30.6432 Y13.7636
G1 X30.6392 Y13.7709
G1 X30.5599 Y13.8895
G1 X30.5034 Y14.0261
G1 X30.4745 Y14.1711
G1 X30.4745 Y14.3189
G1 X30.5034 Y14.4639
G1 X30.5599 Y14.6005
G1 X30.6421 Y14.7234
G1 X30.7466 Y14.8280
G1 X30.8695 Y14.9101
G1 X31.0061 Y14.9667
G1 X31.1511 Y14.9955
G1 X31.2989 Y14.9955
G1 X31.4439 Y14.9667
G1 X31.5805 Y14.9101
G1 X31.7034 Y14.8280
G1 X31.7869 Y14.7446
G1 X31.8125 Y14.7241
G1 X31.8188 Y14.7203
G1 X31.8245 Y14.7180
G1 X31.8950 Y14.6972
G1 X31.8997 Y14.6962
G1 X31.9056 Y14.6956
G1 X32.2271 Y14.6955
G1 X32.2570 Y14.6984
G1 X32.2628 Y14.6996
G1 X32.2674 Y14.7010
G1 X32.2728 Y14.7035
G1 X32.3348 Y14.7357
G1 X32.3422 Y14.7404
G1 X32.3486 Y14.7462
G1 X32.3539 Y14.7531
G1 X32.3921 Y14.8203
G1 X32.3939 Y14.8249
G1 X32.3955 Y14.8309
G1 X32.3965 Y14.8408
G1 X32.3924 Y14.9178
G1 X32.3901 Y14.9270
G1 X32.3670 Y14.9930
G1 X32.3659 Y15.0050
G1 X32.5749 Y15.0050
G1 X32.5795 Y14.9923
G1 X32.5874 Y14.9754
G1 X32.5970 Y14.9595
G1 X32.6066 Y14.9464
G1 X32.6224 Y14.9290
G1 X32.6345 Y14.9181
G1 X32.6484 Y14.9077
G1 X32.6676 Y14.8963
G1 X32.6823 Y14.8895
G1 X32.6999 Y14.8832
G1 X32.7179 Y14.8787
G1 X32.7340 Y14.8762
G1 X32.7550 Y14.8750
G1 X33.0950 Y14.8750
G1 X33.1136 Y14.8759
G1 X33.1309 Y14.8784
G1 X33.1502 Y14.8832
G1 X33.1700 Y14.8905
G1 X33.1846 Y14.8974
G1 X33.1985 Y14.9057
G1 X33.2165 Y14.9189
G1 X33.2294 Y14.9307
G1 X33.2403 Y14.9426
G1 X33.2530 Y14.9595
G1 X33.2637 Y14.9776
G1 X33.2705 Y14.9923
G1 X33.2752 Y15.0050
G1 X33.4841 Y15.0050
G1 X33.4830 Y14.9930
G1 X33.4437 Y14.8807
G1 X33.4047 Y14.8279
G1 X33.3942 Y14.8116
G1 X33.3903 Y14.8037
G1 X33.3884 Y14.7978
G1 X33.3839 Y14.7776
G1 X33.3758 Y14.7586
G1 X33.3733 Y14.7503
G1 X33.3722 Y14.7404
G1 X33.3724 Y14.7354
G1 X33.3732 Y14.7301
G1 X33.3722 Y14.7247
G1 X33.3716 Y14.7185
G1 X33.3719 Y14.7123
G1 X33.3729 Y14.7062
G1 X33.3742 Y14.7014
G1 X33.3813 Y14.6820
G1 X33.3856 Y14.6582
G1 X33.3879 Y14.6515
G1 X33.3939 Y14.6391
G1 X33.3986 Y14.6313
G1 X33.4442 Y14.5695
G1 X33.4835 Y14.4571
G1 X33.4855 Y14.4357
G1 X33.4855 Y14.0543
G1 X33.4835 Y14.0329
G1 X33.4442 Y13.9205
G1 X33.4085 Y13.8722
G1 X33.4021 Y13.8625
G1 X33.3988 Y13.8560
G1 X33.3772 Y13.7832
G1 X33.3760 Y13.7773
G1 X33.3755 Y13.7714
G1 X33.3755 Y13.1799
G1 X33.3762 Y13.1654
G1 X33.3771 Y13.1606
G1 X33.3788 Y13.1548
G1 X33.4028 Y13.0892
G1 X33.4051 Y13.0837
G1 X33.4095 Y13.0766
G1 X33.4497 Y13.0222
G1 X33.4885 Y12.9111
G1 X33.4905 Y12.8901
G1 X33.4905 Y12.5199
G1 X33.4885 Y12.4989
G1 X33.4437 Y12.3708
G1 X33.4418 Y12.3620
G1 X33.4345 Y12.3392
G1 X33.4331 Y12.3296
G1 X33.4335 Y12.3200
G1 X33.4439 Y12.2484
G1 X33.4454 Y12.2424
G1 X33.4472 Y12.2378
G1 X33.4501 Y12.2323
G1 X33.4528 Y12.2282
G1 X33.5017 Y12.1715
G1 X33.5062 Y12.1672
G1 X33.5111 Y12.1635
G1 X33.5176 Y12.1598
G1 X33.5234 Y12.1576
G1 X33.5939 Y12.1369
G1 X33.5998 Y12.1359
G1 X33.6057 Y12.1355
G1 X33.7447 Y12.1355
G1 X33.7507 Y12.1360
G1 X33.7856 Y12.1410
G1 X33.7918 Y12.1423
G1 X33.8042 Y12.1464
G1 X33.8129 Y12.1508
G1 X33.8395 Y12.1703
G1 X33.8653 Y12.1869
G1 X33.8712 Y12.1916
G1 X33.8754 Y12.1960
G1 X33.8822 Y12.2044
G1 X33.9678 Y12.3172
G1 X34.0774 Y12.4004
G1 X34.2058 Y12.4510
G1 X34.2849 Y12.4605
G1 X35.7651 Y12.4605
G1 X35.8442 Y12.4510
G1 X35.9726 Y12.4004
G1 X36.0822 Y12.3172
G1 X36.1654 Y12.2076
G1 X36.2160 Y12.0792
G1 X36.2255 Y12.0001
G1 X36.2257 Y11.5690
G1 X36.2290 Y11.5388
G1 X36.2303 Y11.5329
G1 X36.2319 Y11.5282
G1 X36.2345 Y11.5227
G1 X36.2685 Y11.4603
G1 X36.2725 Y11.4544
G1 X36.2765 Y11.4499
G1 X36.8655 Y10.8609
G1 X36.9182 Y10.7696
G1 X36.9455 Y10.6677
G1 X36.9455 Y9.9583
G1 X36.9464 Y9.9500
G1 X36.9581 Y9.8962
G1 X36.9605 Y9.8890
G1 X36.9632 Y9.8834
G1 X36.9689 Y9.8753
G1 X37.0147 Y9.8225
G1 X37.0190 Y9.8180
G1 X37.0249 Y9.8135
G1 X37.0303 Y9.8104
G1 X37.0372 Y9.8076
G1 X37.1054 Y9.7875
G1 X37.1148 Y9.7857
G1 X37.2717 Y9.7855
G1 X37.2776 Y9.7860
G1 X37.3150 Y9.7915
G1 X37.3235 Y9.7939
G1 X37.3308 Y9.7975
G1 X37.3398 Y9.8000
G1 X37.3477 Y9.8038
G1 X37.3538 Y9.8081
G1 X37.3720 Y9.8239
G1 X37.3923 Y9.8369
G1 X37.3999 Y9.8433
G1 X37.4047 Y9.8490
G1 X37.4089 Y9.8559
G1 X37.4128 Y9.8600
G1 X37.4159 Y9.8639
G1 X37.4191 Y9.8692
G1 X37.4216 Y9.8749
G1 X37.4292 Y9.9003
G1 X37.4392 Y9.9222
G1 X37.4413 Y9.9281
G1 X37.4430 Y9.9366
G1 X37.4432 Y9.9416
G1 X37.4430 Y9.9472
G1 X37.4440 Y9.9524
G1 X37.4445 Y9.9583
G1 X37.4445 Y11.0749
G1 X37.4440 Y11.0876
G1 X37.4419 Y11.0970
G1 X37.4179 Y11.1652
G1 X37.4141 Y11.1730
G1 X37.4090 Y11.1800
G1 X37.4018 Y11.1869
G1 X37.3467 Y11.2298
G1 X37.3408 Y11.2337
G1 X37.3348 Y11.2366
G1 X37.2306 Y11.3156
G1 X37.1516 Y11.4198
G1 X37.1035 Y11.5418
G1 X37.0945 Y11.6169
G1 X37.0945 Y12.1932
G1 X37.1035 Y12.2682
G1 X37.1516 Y12.3903
G1 X37.2306 Y12.4944
G1 X37.3348 Y12.5734
G1 X37.3459 Y12.5784
G1 X37.3529 Y12.5830
G1 X37.4076 Y12.6303
G1 X37.4128 Y12.6355
G1 X37.4185 Y12.6437
G1 X37.4220 Y12.6516
G1 X37.4425 Y12.7210
G1 X37.4438 Y12.7268
G1 X37.4445 Y12.7351
G1 X37.4445 Y14.0019
G1 X37.4433 Y14.0117
G1 X37.4282 Y14.0716
G1 X37.4264 Y14.0773
G1 X37.4233 Y14.0839
G1 X37.4200 Y14.0890
G1 X37.4162 Y14.0936
G1 X37.3663 Y14.1442
G1 X37.3607 Y14.1491
G1 X37.3544 Y14.1531
G1 X37.3488 Y14.1557
G1 X37.3416 Y14.1579
G1 X37.2723 Y14.1735
G1 X37.2661 Y14.1743
G1 X37.2599 Y14.1744
G1 X37.2537 Y14.1737
G1 X37.2465 Y14.1718
G1 X37.1797 Y14.1474
G1 X37.1732 Y14.1445
G1 X37.1672 Y14.1407
G1 X37.0922 Y14.0853
G1 X36.9811 Y14.0465
G1 X36.9601 Y14.0445
G1 X36.5899 Y14.0445
G1 X36.5689 Y14.0465
G1 X36.4578 Y14.0853
G1 X36.3790 Y14.1435
G1 X36.3627 Y14.1540
G1 X36.3560 Y14.1574
G1 X36.3477 Y14.1601
G1 X36.2795 Y14.1754
G1 X36.2734 Y14.1764
G1 X36.2672 Y14.1766
G1 X36.2598 Y14.1758
G1 X36.2526 Y14.1740
G1 X36.1858 Y14.1496
G1 X36.1803 Y14.1472
G1 X36.1732 Y14.1429
G1 X36.1095 Y14.0959
G1 X35.9971 Y14.0565
G1 X35.9757 Y14.0545
G1 X35.5943 Y14.0545
G1 X35.5729 Y14.0565
G1 X35.4605 Y14.0959
G1 X35.4070 Y14.1353
G1 X35.3907 Y14.1458
G1 X35.3829 Y14.1497
G1 X35.3757 Y14.1519
G1 X35.3075 Y14.1672
G1 X35.3014 Y14.1682
G1 X35.2965 Y14.1684
G1 X35.2878 Y14.1676
G1 X35.2806 Y14.1658
G1 X35.2094 Y14.1396
G1 X35.2022 Y14.1354
G1 X35.1493 Y14.0963
G1 X35.0370 Y14.0570
G1 X35.0250 Y14.0559
G1 X35.0250 Y14.2649
G1 X35.0377 Y14.2695
G1 X35.0546 Y14.2774
G1 X35.0706 Y14.2870
G1 X35.0836 Y14.2966
G1 X35.1011 Y14.3124
G1 X35.1119 Y14.3245
G1 X35.1223 Y14.3384
G1 X35.1337 Y14.3576
G1 X35.1405 Y14.3723
G1 X35.1468 Y14.3899
G1 X35.1514 Y14.4079
G1 X35.1538 Y14.4240
G1 X35.1550 Y14.4450
G1 X35.1550 Y14.7850
G1 X35.1541 Y14.8036
G1 X35.1516 Y14.8209
G1 X35.1468 Y14.8402
G1 X35.1396 Y14.8600
G1 X35.1326 Y14.8746
G1 X35.1243 Y14.8885
G1 X35.1111 Y14.9065
G1 X35.0994 Y14.9194
G1 X35.0874 Y14.9303
G1 X35.0706 Y14.9430
G1 X35.0524 Y14.9537
G1 X35.0377 Y14.9605
G1 X35.0250 Y14.9652
G1 X35.0250 Y15.1741
G1 X35.0370 Y15.1730
G1 X35.1493 Y15.1337
G1 X35.2021 Y15.0947
G1 X35.2185 Y15.0842
G1 X35.2263 Y15.0803
G1 X35.2335 Y15.0782
G1 X35.3016 Y15.0628
G1 X35.3115 Y15.0616
G1 X35.3201 Y15.0622
G1 X35.3286 Y15.0642
G1 X35.3998 Y15.0905
G1 X35.4070 Y15.0947
G1 X35.4605 Y15.1342
G1 X35.5729 Y15.1735
G1 X35.5943 Y15.1755
G1 X35.9757 Y15.1755
G1 X35.9971 Y15.1735
G1 X36.1095 Y15.1342
G1 X36.1741 Y15.0865
G1 X36.1904 Y15.0760
G1 X36.1971 Y15.0726
G1 X36.2054 Y15.0699
G1 X36.2736 Y15.0546
G1 X36.2834 Y15.0534
G1 X36.2921 Y15.0540
G1 X36.3005 Y15.0560
G1 X36.3673 Y15.0804
G1 X36.3739 Y15.0833
G1 X36.3799 Y15.0872
G1 X36.4578 Y15.1447
G1 X36.5689 Y15.1835
G1 X36.5899 Y15.1855
G1 X36.9601 Y15.1855
G1 X36.9811 Y15.1835
G1 X37.0922 Y15.1447
G1 X37.1672 Y15.0893
G1 X37.1724 Y15.0860
G1 X37.1779 Y15.0833
G1 X37.2350 Y15.0599
G1 X37.2431 Y15.0575
G1 X37.2503 Y15.0567
G1 X37.2600 Y15.0571
G1 X37.3304 Y15.0672
G1 X37.3388 Y15.0694
G1 X37.3456 Y15.0724
G1 X37.3538 Y15.0779
G1 X37.4094 Y15.1262
G1 X37.4136 Y15.1307
G1 X37.4172 Y15.1358
G1 X37.4202 Y15.1412
G1 X37.4228 Y15.1482
G1 X37.4428 Y15.2164
G1 X37.4442 Y15.2234
G1 X37.4445 Y15.2293
G1 X37.4445 Y17.1055
G1 X37.4436 Y17.1150
G1 X37.4312 Y17.1713
G1 X37.4280 Y17.1794
G1 X37.4227 Y17.1878
G1 X37.3745 Y17.2435
G1 X37.3701 Y17.2478
G1 X37.3651 Y17.2516
G1 X37.3586 Y17.2552
G1 X37.3528 Y17.2574
G1 X37.2846 Y17.2775
G1 X37.2753 Y17.2793
G1 X37.1349 Y17.2795
G1 X37.0558 Y17.2890
G1 X36.9274 Y17.3396
G1 X36.8178 Y17.4228
G1 X36.7346 Y17.5324
G1 X36.6840 Y17.6608
G1 X36.6745 Y17.7399
G1 X36.6745 Y19.5101
G1 X36.6840 Y19.5892
G1 X36.7346 Y19.7176
G1 X36.8178 Y19.8272
G1 X36.9274 Y19.9104
G1 X37.0558 Y19.9610
G1 X37.1349 Y19.9705
G1 X38.4551 Y19.9705
G1 X38.5342 Y19.9610
G1 X38.6626 Y19.9104
G1 X38.7722 Y19.8272
G1 X38.8554 Y19.7176
G1 X38.9060 Y19.5892
G1 X38.9155 Y19.5101
G1 X38.9156 Y19.2959
G1 X38.9167 Y19.2889
G1 X38.9279 Y19.2374
G1 X38.9296 Y19.2314
G1 X38.9315 Y19.2267
G1 X38.9345 Y19.2213
G1 X38.9381 Y19.2162
G1 X38.9855 Y19.1615
G1 X38.9919 Y19.1556
G1 X39.0003 Y19.1504
G1 X39.0084 Y19.1472
G1 X39.0754 Y19.1275
G1 X39.0812 Y19.1262
G1 X39.0883 Y19.1255
G1 X39.1199 Y19.1255
G1 X39.1369 Y19.1264
G1 X39.1442 Y19.1274
G1 X39.1518 Y19.1296
G1 X39.1645 Y19.1315
G1 X39.1729 Y19.1339
G1 X39.1808 Y19.1378
G1 X39.1991 Y19.1495
G1 X39.2213 Y19.1590
G1 X39.2266 Y19.1622
G1 X39.2315 Y19.1660
G1 X39.2359 Y19.1704
G1 X39.2401 Y19.1759
G1 X39.2476 Y19.1816
G1 X39.2534 Y19.1880
G1 X39.2581 Y19.1953
G1 X39.2676 Y19.2161
G1 X39.2798 Y19.2340
G1 X39.2827 Y19.2391
G1 X39.2854 Y19.2457
G1 X39.2966 Y19.2801
G1 X39.3767 Y19.4373
G1 X39.4803 Y19.5800
G1 X39.6051 Y19.7047
G1 X39.7477 Y19.8083
G1 X39.9049 Y19.8884
G1 X40.0726 Y19.9429
G1 X40.2468 Y19.9705
G1 X40.4232 Y19.9705
G1 X40.5974 Y19.9429
G1 X40.7651 Y19.8884
G1 X40.9223 Y19.8083
G1 X41.0650 Y19.7047
G1 X41.1897 Y19.5800
G1 X41.2933 Y19.4373
G1 X41.3734 Y19.2801
G1 X41.4279 Y19.1124
G1 X41.4334 Y19.0781
G1 X41.4352 Y19.0710
G1 X41.4652 Y19.0049
G1 X41.4682 Y18.9996
G1 X41.4710 Y18.9956
G1 X41.4759 Y18.9903
G1 X41.4825 Y18.9850
G1 X41.5418 Y18.9458
G1 X41.5472 Y18.9428
G1 X41.5542 Y18.9402
G1 X41.5603 Y18.9388
G1 X41.5664 Y18.9381
G1 X41.6388 Y18.9371
G1 X41.6486 Y18.9382
G1 X41.6581 Y18.9412
G1 X41.6647 Y18.9447
G1 X41.7261 Y18.9830
G1 X41.7309 Y18.9868
G1 X41.7345 Y18.9903
G1 X41.7376 Y18.9941
G1 X41.7410 Y18.9993
G1 X41.7727 Y19.0658
G1 X41.7749 Y19.0713
G1 X41.7767 Y19.0782
G1 X41.7821 Y19.1124
G1 X41.8366 Y19.2801
G1 X41.9167 Y19.4373
G1 X42.0203 Y19.5800
G1 X42.1451 Y19.7047
G1 X42.2877 Y19.8084
G1 X42.4295 Y19.8806
G1 X42.4347 Y19.8836
G1 X42.4395 Y19.8873
G1 X42.4893 Y19.9324
G1 X42.4935 Y19.9369
G1 X42.4972 Y19.9420
G1 X42.5002 Y19.9475
G1 X42.5024 Y19.9533
G1 X42.5231 Y20.0238
G1 X42.5242 Y20.0297
G1 X42.5245 Y20.0356
G1 X42.5245 Y21.9798
G1 X42.5242 Y21.9906
G1 X42.5232 Y21.9979
G1 X42.5212 Y22.0049
G1 X42.4968 Y22.0717
G1 X42.4925 Y22.0801
G1 X42.4730 Y22.1066
G1 X42.4458 Y22.1344
G1 X42.4411 Y22.1386
G1 X42.4307 Y22.1459
G1 X42.4254 Y22.1491
G1 X42.4210 Y22.1512
G1 X42.3891 Y22.1608
G1 X42.3580 Y22.1724
G1 X42.3494 Y22.1739
G1 X42.3352 Y22.1745
G1 X36.5423 Y22.1745
G1 X36.5093 Y22.1712
G1 X36.5033 Y22.1701
G1 X36.4975 Y22.1682
G1 X36.4919 Y22.1656
G1 X36.4306 Y22.1321
G1 X36.4266 Y22.1296
G1 X36.4218 Y22.1260
G1 X35.8746 Y21.5789
G1 X35.8548 Y21.5542
G1 X35.8515 Y21.5491
G1 X35.8488 Y21.5435
G1 X35.8272 Y21.4707
G1 X35.8260 Y21.4649
G1 X35.8255 Y21.4589
G1 X35.8255 Y20.3589
G1 X35.8261 Y20.3512
G1 X35.8320 Y20.3135
G1 X35.8333 Y20.3076
G1 X35.8358 Y20.3007
G1 X35.8393 Y20.2942
G1 X35.8791 Y20.2353
G1 X35.8845 Y20.2286
G1 X35.8921 Y20.2222
G1 X35.9008 Y20.2174
G1 X35.9672 Y20.1889
G1 X35.9729 Y20.1872
G1 X35.9776 Y20.1863
G1 X36.0066 Y20.1828
G1 X36.0542 Y20.1624
G1 X36.1090 Y20.1320
G1 X36.1864 Y20.0680
G1 X36.2154 Y20.0251
G1 X36.2451 Y19.9699
G1 X36.2764 Y19.8720
G1 X36.2790 Y19.8469
G1 X36.2805 Y19.8178
G1 X36.2805 Y16.0526
G1 X36.2692 Y15.9736
G1 X36.2518 Y15.9144
G1 X36.2062 Y15.8249
G1 X36.1707 Y15.7872
G1 X36.1233 Y15.7462
G1 X36.0358 Y15.6950
G1 X36.0052 Y15.6862
G1 X35.9579 Y15.6759
G1 X35.8983 Y15.6695
G1 X33.6399 Y15.6695
G1 X33.6088 Y15.6667
G1 X33.6006 Y15.6648
G1 X33.5940 Y15.6621
G1 X33.5298 Y15.6287
G1 X33.5246 Y15.6254
G1 X33.5207 Y15.6223
G1 X33.5156 Y15.6169
G1 X33.5112 Y15.6109
G1 X33.4742 Y15.5459
G1 X33.4708 Y15.5366
G1 X33.4698 Y15.5317
G1 X33.4693 Y15.5255
G1 X33.4730 Y15.4508
G1 X33.4736 Y15.4461
G1 X33.4749 Y15.4403
G1 X33.4830 Y15.4170
G1 X33.4841 Y15.4050
G1 X33.2752 Y15.4050
G1 X33.2705 Y15.4177
G1 X33.2626 Y15.4346
G1 X33.2530 Y15.4506
G1 X33.2434 Y15.4636
G1 X33.2276 Y15.4811
G1 X33.2155 Y15.4919
G1 X33.2016 Y15.5023
G1 X33.1824 Y15.5137
G1 X33.1677 Y15.5205
G1 X33.1502 Y15.5268
G1 X33.1321 Y15.5314
G1 X33.1161 Y15.5338
G1 X33.0950 Y15.5350
G1 X32.7550 Y15.5350
G1 X32.7364 Y15.5341
G1 X32.7192 Y15.5316
G1 X32.6999 Y15.5268
G1 X32.6801 Y15.5196
G1 X32.6654 Y15.5126
G1 X32.6515 Y15.5043
G1 X32.6335 Y15.4911
G1 X32.6207 Y15.4794
G1 X32.6097 Y15.4674
G1 X32.5970 Y15.4506
G1 X32.5863 Y15.4324
G1 X32.5795 Y15.4177
G1 X32.5749 Y15.4050
G1 X32.3659 Y15.4050
G1 X32.3670 Y15.4170
G1 X32.3755 Y15.4415
G1 X32.3820 Y15.4683
G1 X32.3829 Y15.4778
G1 X32.3824 Y15.4850
G1 X32.3722 Y15.5554
G1 X32.3700 Y15.5638
G1 X32.3664 Y15.5717
G1 X32.3607 Y15.5798
G1 X32.3141 Y15.6335
G1 X32.3087 Y15.6386
G1 X32.3037 Y15.6422
G1 X32.2982 Y15.6452
G1 X32.2913 Y15.6478
G1 X32.2231 Y15.6678
G1 X32.2184 Y15.6688
G1 X32.2125 Y15.6695
G1 X29.4545 Y15.6695
G1 X29.4450 Y15.6686
G1 X29.3899 Y15.6566
G1 X29.3806 Y15.6530
G1 X29.3732 Y15.6484
G1 X29.3165 Y15.5995
G1 X29.3114 Y15.5941
G1 X29.3078 Y15.5891
G1 X29.3043 Y15.5825
G1 X29.3022 Y15.5766
G1 X29.2822 Y15.5085
G1 X29.2810 Y15.5026
G1 X29.2806 Y15.4979
G1 X29.2805 Y13.1579
G1 X29.2727 Y13.0921
G1 X29.2604 Y13.0413
G1 X29.2373 Y12.9791
G1 X27.2886 Y9.1790
G1 X27.2424 Y9.1139
G1 X27.2000 Y9.0692
G1 X27.1184 Y9.0101
G1 X27.0757 Y8.9945
G1 X27.0188 Y8.9791
G1 X26.9460 Y8.9695
G1 X23.4526 Y8.9695
G1 X23.3736 Y8.9809
G1 X23.3144 Y8.9982
G1 X23.2395 Y9.0363
G1 X23.2140 Y9.0466
G1 X23.2079 Y9.0484
G1 X23.2030 Y9.0493
G1 X23.1980 Y9.0497
G1 X23.1244 Y9.0497
G1 X23.1194 Y9.0492
G1 X23.1134 Y9.0479
G1 X23.1075 Y9.0459
G1 X23.1019 Y9.0431
G1 X23.0400 Y9.0034
G1 X23.0351 Y8.9996
G1 X23.0298 Y8.9943
G1 X23.0268 Y8.9904
G1 X23.0236 Y8.9851
G1 X23.0090 Y8.9533
G1 X23.0031 Y8.9467
G1 X22.9985 Y8.9394
G1 X22.9961 Y8.9338
G1 X22.9936 Y8.9260
G1 X22.9458 Y8.8281
G1 X22.8719 Y8.7543
G1 X22.7776 Y8.7081
G1 X22.7183 Y8.6995
G1 X22.5317 Y8.6995
G1 X22.4724 Y8.7081
G1 X22.4498 Y8.7192
G1 X22.4453 Y8.7210
G1 X22.4029 Y8.7335
G1 X22.3971 Y8.7348
G1 X22.3858 Y8.7360
G1 X22.2751 Y8.7432
G1 X22.2751 Y8.9419
G1 X22.2811 Y8.9500
G1 X22.2867 Y8.9595
G1 X22.2914 Y8.9695
G1 X22.2944 Y8.9775
G1 X22.2983 Y8.9930
G1 X22.2995 Y9.0015
G1 X22.3000 Y9.0125
G1 X22.3000 Y9.9637
G1 X22.2995 Y9.9735
G1 X22.2979 Y9.9845
G1 X22.2952 Y9.9952
G1 X22.2923 Y10.0033
G1 X22.2861 Y10.0166
G1 X22.2811 Y10.0250
G1 X22.2751 Y10.0331
G1 X22.2751 Y10.0891
G1 X22.2763 Y10.0918
G1 X22.2808 Y10.0989
G1 X22.2843 Y10.1068
G1 X22.2969 Y10.1473
G1 X22.2985 Y10.1557
G1 X22.2987 Y10.1606
G1 X22.2985 Y10.1661
G1 X22.2999 Y10.1750
G1 X22.7299 Y10.1753
G1 X22.7383 Y10.1768
G1 X22.7464 Y10.1798
G1 X22.7528 Y10.1834
G1 X22.7595 Y10.1888
G1 X22.7652 Y10.1952
G1 X22.7697 Y10.2025
G1 X22.7729 Y10.2105
G1 X22.7745 Y10.2177
G1 X22.7750 Y10.2250
G1 X22.7750 Y12.1501
G1 X22.7816 Y12.1510
G1 X22.8243 Y12.1609
G1 X22.8327 Y12.1622
G1 X22.8375 Y12.1634
G1 X22.8434 Y12.1655
G1 X22.8511 Y12.1692
G1 X22.8552 Y12.1716
G1 X22.8598 Y12.1750
G1 X22.9169 Y12.1750
G1 X22.9250 Y12.1690
G1 X22.9334 Y12.1639
G1 X22.9468 Y12.1577
G1 X22.9549 Y12.1549
G1 X22.9656 Y12.1522
G1 X22.9765 Y12.1506
G1 X22.9863 Y12.1500
G1 X23.9375 Y12.1500
G1 X23.9485 Y12.1506
G1 X23.9619 Y12.1527
G1 X23.9702 Y12.1549
G1 X23.9806 Y12.1586
G1 X23.9927 Y12.1645
G1 X24.0000 Y12.1690
G1 X24.0086 Y12.1753
G1 X24.0159 Y12.1758
G1 X24.0281 Y12.1776
G1 X24.0424 Y12.1811
G1 X24.0574 Y12.1864
G1 X24.0718 Y12.1933
G1 X24.0844 Y12.2009
G1 X24.0971 Y12.2106
G1 X24.1061 Y12.2189
G1 X24.1622 Y12.2750
G1 X26.1654 Y12.2750
G1 X26.1661 Y12.2652
G1 X26.1689 Y12.2467
G1 X26.1732 Y12.2299
G1 X26.1790 Y12.2134
G1 X26.1887 Y12.1933
G1 X26.1970 Y12.1795
G1 X26.2074 Y12.1654
G1 X26.2224 Y12.1490
G1 X26.2345 Y12.1381
G1 X26.2495 Y12.1270
G1 X26.2676 Y12.1163
G1 X26.2823 Y12.1095
G1 X26.2987 Y12.1036
G1 X26.3204 Y12.0982
G1 X26.3364 Y12.0959
G1 X26.3538 Y12.0950
G1 X26.6950 Y12.0950
G1 X26.7149 Y12.0961
G1 X26.7321 Y12.0987
G1 X26.7478 Y12.1025
G1 X26.7677 Y12.1095
G1 X26.7846 Y12.1174
G1 X26.7985 Y12.1257
G1 X26.8174 Y12.1397
G1 X26.8294 Y12.1507
G1 X26.8419 Y12.1645
G1 X26.8530 Y12.1795
G1 X26.8614 Y12.1933
G1 X26.8714 Y12.2146
G1 X26.8768 Y12.2299
G1 X26.8811 Y12.2467
G1 X26.8841 Y12.2664
G1 X26.8850 Y12.2850
G1 X26.8850 Y12.5650
G1 X26.8841 Y12.5836
G1 X26.8808 Y12.6045
G1 X26.8768 Y12.6202
G1 X26.8705 Y12.6377
G1 X26.8614 Y12.6567
G1 X26.8530 Y12.6706
G1 X26.8434 Y12.6836
G1 X26.8294 Y12.6994
G1 X26.8155 Y12.7119
G1 X26.8006 Y12.7230
G1 X26.7857 Y12.7320
G1 X26.7677 Y12.7405
G1 X26.7502 Y12.7468
G1 X26.7321 Y12.7514
G1 X26.7161 Y12.7538
G1 X26.6950 Y12.7550
G1 X26.3526 Y12.7550
G1 X26.3364 Y12.7541
G1 X26.3179 Y12.7514
G1 X26.2999 Y12.7468
G1 X26.2823 Y12.7405
G1 X26.2654 Y12.7326
G1 X26.2495 Y12.7230
G1 X26.2345 Y12.7119
G1 X26.2215 Y12.7002
G1 X26.2081 Y12.6855
G1 X26.1970 Y12.6706
G1 X26.1874 Y12.6546
G1 X26.1800 Y12.6389
G1 X26.1732 Y12.6202
G1 X26.1689 Y12.6033
G1 X26.1661 Y12.5849
G1 X26.1654 Y12.5751
G1 X24.0988 Y12.5750
G1 X24.0829 Y12.5740
G1 X24.0707 Y12.5722
G1 X24.0588 Y12.5693
G1 X24.0426 Y12.5636
G1 X24.0282 Y12.5568
G1 X24.0166 Y12.5498
G1 X24.0039 Y12.5402
G1 X23.9939 Y12.5311
G1 X23.9604 Y12.4976
G1 X23.9485 Y12.4995
G1 X23.9375 Y12.5000
G1 X22.9863 Y12.5000
G1 X22.9765 Y12.4995
G1 X22.9656 Y12.4979
G1 X22.9549 Y12.4952
G1 X22.9468 Y12.4923
G1 X22.9334 Y12.4861
G1 X22.9250 Y12.4811
G1 X22.9169 Y12.4751
G1 X22.8609 Y12.4751
G1 X22.8581 Y12.4763
G1 X22.8511 Y12.4808
G1 X22.8432 Y12.4844
G1 X22.8027 Y12.4969
G1 X22.7942 Y12.4985
G1 X22.7893 Y12.4988
G1 X22.7838 Y12.4985
G1 X22.7750 Y12.4999
G1 X22.7750 Y15.4250
G1 X22.7743 Y15.4336
G1 X22.7721 Y15.4419
G1 X22.7691 Y15.4486
G1 X22.7652 Y15.4548
G1 X22.7604 Y15.4604
G1 X22.7548 Y15.4652
G1 X22.7486 Y15.4691
G1 X22.7419 Y15.4721
G1 X22.7336 Y15.4743
G1 X22.7262 Y15.4750
G1 X21.2999 Y15.4750
G1 X21.2990 Y15.4816
G1 X21.2892 Y15.5241
G1 X21.2879 Y15.5326
G1 X21.2867 Y15.5374
G1 X21.2845 Y15.5433
G1 X21.2808 Y15.5511
G1 X21.2784 Y15.5552
G1 X21.2751 Y15.5598
G1 X21.2751 Y15.6169
G1 X21.2811 Y15.6250
G1 X21.2861 Y15.6334
G1 X21.2923 Y15.6468
G1 X21.2952 Y15.6549
G1 X21.2979 Y15.6656
G1 X21.2995 Y15.6765
G1 X21.3000 Y15.6863
G1 X21.3000 Y16.6387
G1 X21.2993 Y16.6498
G1 X21.2973 Y16.6619
G1 X21.2952 Y16.6702
G1 X21.2923 Y16.6783
G1 X21.2873 Y16.6895
G1 X21.2811 Y16.7000
G1 X21.2745 Y16.7089
G1 X21.2671 Y16.7171
G1 X21.2569 Y16.7260
G1 X21.2500 Y16.7311
G1 X21.2427 Y16.7355
G1 X21.2306 Y16.7414
G1 X21.2202 Y16.7452
G1 X21.2119 Y16.7473
G1 X21.1985 Y16.7495
G1 X21.1875 Y16.7500
G1 X21.0625 Y16.7500
G1 X21.0515 Y16.7495
G1 X21.0406 Y16.7479
G1 X21.0299 Y16.7452
G1 X21.0218 Y16.7423
G1 X21.0095 Y16.7367
G1 X20.9980 Y16.7296
G1 X20.9911 Y16.7245
G1 X20.9830 Y16.7171
G1 X20.9755 Y16.7089
G1 X20.9704 Y16.7020
G1 X20.9633 Y16.6905
G1 X20.9577 Y16.6783
G1 X20.9549 Y16.6702
G1 X20.9527 Y16.6619
G1 X20.9506 Y16.6485
G1 X20.9500 Y16.6375
G1 X20.9500 Y15.6863
G1 X20.9506 Y15.6765
G1 X20.9522 Y15.6656
G1 X20.9549 Y15.6549
G1 X20.9577 Y15.6468
G1 X20.9639 Y15.6334
G1 X20.9690 Y15.6250
G1 X20.9750 Y15.6169
G1 X20.9750 Y15.5609
G1 X20.9737 Y15.5582
G1 X20.9692 Y15.5511
G1 X20.9657 Y15.5432
G1 X20.9531 Y15.5027
G1 X20.9515 Y15.4943
G1 X20.9513 Y15.4894
G1 X20.9516 Y15.4839
G1 X20.9501 Y15.4750
G1 X17.3331 Y15.4751
G1 X17.3250 Y15.4811
G1 X17.3177 Y15.4855
G1 X17.3056 Y15.4914
G1 X17.2952 Y15.4952
G1 X17.2869 Y15.4973
G1 X17.2723 Y15.4996
G1 X17.2625 Y15.5000
G1 X16.9625 Y15.5000
G1 X16.9625 Y15.7000
G1 X17.0803 Y15.7002
G1 X17.0861 Y15.7012
G1 X17.1389 Y15.7126
G1 X17.1460 Y15.7150
G1 X17.1516 Y15.7177
G1 X17.1598 Y15.7234
G1 X17.2126 Y15.7692
G1 X17.2170 Y15.7735
G1 X17.2216 Y15.7794
G1 X17.2252 Y15.7859
G1 X17.2274 Y15.7917
G1 X17.2481 Y15.8622
G1 X17.2492 Y15.8681
G1 X17.2495 Y15.8740
G1 X17.2494 Y16.4354
G1 X17.2461 Y16.4669
G1 X17.2447 Y16.4729
G1 X17.2432 Y16.4775
G1 X17.2406 Y16.4831
G1 X17.2053 Y16.5475
G1 X17.2025 Y16.5513
G1 X17.1985 Y16.5558
G1 X15.4490 Y18.3050
G1 X15.4106 Y18.3324
G1 X15.4040 Y18.3360
G1 X15.3981 Y18.3382
G1 X15.3920 Y18.3396
G1 X15.3218 Y18.3514
G1 X15.3119 Y18.3518
G1 X15.3033 Y18.3506
G1 X15.2951 Y18.3479
G1 X15.2309 Y18.3204
G1 X15.2243 Y18.3169
G1 X15.2192 Y18.3133
G1 X15.2146 Y18.3092
G1 X15.2098 Y18.3034
G1 X15.1674 Y18.2403
G1 X15.1653 Y18.2358
G1 X15.1632 Y18.2300
G1 X15.1615 Y18.2202
G1 X15.1597 Y18.1467
G1 X15.1601 Y18.1407
G1 X15.1611 Y18.1349
G1 X15.1755 Y18.0812
G1 X15.1757 Y17.3247
G1 X15.1764 Y17.3176
G1 X15.1782 Y17.3106
G1 X15.2018 Y17.2436
G1 X15.2054 Y17.2356
G1 X15.2103 Y17.2285
G1 X15.2163 Y17.2223
G1 X15.2744 Y17.1771
G1 X15.2786 Y17.1743
G1 X15.2841 Y17.1715
G1 X15.2899 Y17.1694
G1 X15.2960 Y17.1680
G1 X15.3692 Y17.1613
G1 X15.3752 Y17.1611
G1 X15.3835 Y17.1621
G1 X15.4511 Y17.1755
G1 X15.5989 Y17.1755
G1 X15.7439 Y17.1467
G1 X15.8805 Y17.0901
G1 X16.0034 Y17.0080
G1 X16.1080 Y16.9034
G1 X16.1901 Y16.7805
G1 X16.2467 Y16.6439
G1 X16.2755 Y16.4989
G1 X16.2755 Y16.3511
G1 X16.2467 Y16.2061
G1 X16.1901 Y16.0695
G1 X16.1238 Y15.9703
G1 X16.1203 Y15.9642
G1 X16.1181 Y15.9587
G1 X16.0961 Y15.8938
G1 X16.0948 Y15.8840
G1 X16.0955 Y15.8741
G1 X16.1109 Y15.8035
G1 X16.1134 Y15.7952
G1 X16.1174 Y15.7874
G1 X16.1235 Y15.7796
G1 X16.1747 Y15.7285
G1 X16.1825 Y15.7224
G1 X16.1891 Y15.7189
G1 X16.1961 Y15.7165
G1 X16.2547 Y15.7037
G1 X16.2596 Y15.7020
G1 X16.2644 Y15.7009
G1 X16.2705 Y15.7001
G1 X16.2768 Y15.7000
G1 X16.6125 Y15.7000
G1 X16.6125 Y15.5000
G1 X16.3125 Y15.5000
G1 X16.3015 Y15.4995
G1 X16.2906 Y15.4979
G1 X16.2799 Y15.4952
G1 X16.2695 Y15.4914
G1 X16.2595 Y15.4867
G1 X16.2500 Y15.4811
G1 X16.2411 Y15.4745
G1 X16.2330 Y15.4671
G1 X16.2248 Y15.4579
G1 X16.2190 Y15.4500
G1 X16.2133 Y15.4405
G1 X16.2086 Y15.4306
G1 X16.2056 Y15.4225
G1 X16.2018 Y15.4070
G1 X16.2006 Y15.3985
G1 X16.2000 Y15.3875
G1 X16.2000 Y15.2625
G1 X16.2007 Y15.2503
G1 X16.2022 Y15.2406
G1 X16.2042 Y15.2322
G1 X16.2086 Y15.2195
G1 X16.2145 Y15.2073
G1 X16.2190 Y15.2000
G1 X16.2240 Y15.1931
G1 X16.2330 Y15.1830
G1 X16.2411 Y15.1755
G1 X16.2500 Y15.1690
G1 X16.2606 Y15.1627
G1 X16.2718 Y15.1577
G1 X16.2799 Y15.1549
G1 X16.2882 Y15.1527
G1 X16.3003 Y15.1507
G1 X16.3113 Y15.1500
G1 X17.2637 Y15.1500
G1 X17.2735 Y15.1506
G1 X17.2845 Y15.1522
G1 X17.2952 Y15.1549
G1 X17.3033 Y15.1577
G1 X17.3166 Y15.1639
G1 X17.3250 Y15.1690
G1 X17.3331 Y15.1750
G1 X17.4750 Y15.1750
G1 X17.4751 Y10.2213
G1 X17.4768 Y10.2117
G1 X17.4798 Y10.2036
G1 X17.4841 Y10.1962
G1 X17.4897 Y10.1897
G1 X17.4962 Y10.1841
G1 X17.5036 Y10.1798
G1 X17.5117 Y10.1768
G1 X17.5201 Y10.1753
G1 X17.9501 Y10.1750
G1 X17.9510 Y10.1685
G1 X17.9609 Y10.1258
G1 X17.9621 Y10.1174
G1 X17.9633 Y10.1126
G1 X17.9655 Y10.1068
G1 X17.9692 Y10.0990
G1 X17.9716 Y10.0949
G1 X17.9750 Y10.0903
G1 X17.9750 Y10.0331
G1 X17.9690 Y10.0250
G1 X17.9633 Y10.0155
G1 X17.9586 Y10.0056
G1 X17.9556 Y9.9975
G1 X17.9518 Y9.9820
G1 X17.9506 Y9.9735
G1 X17.9500 Y9.9625
G1 X17.9500 Y9.0113
G1 X17.9506 Y9.0015
G1 X17.9518 Y8.9930
G1 X17.9549 Y8.9799
G1 X17.9596 Y8.9672
G1 X17.9633 Y8.9595
G1 X17.9690 Y8.9500
G1 X17.9755 Y8.9411
G1 X17.9830 Y8.9330
G1 X17.9911 Y8.9255
G1 X18.0000 Y8.9190
G1 X18.0095 Y8.9133
G1 X18.0195 Y8.9086
G1 X18.0299 Y8.9049
G1 X18.0394 Y8.9024
G1 X18.0515 Y8.9006
G1 X18.0625 Y8.9000
G1 X18.1875 Y8.9000
G1 X18.1985 Y8.9006
G1 X18.2119 Y8.9027
G1 X18.2202 Y8.9049
G1 X18.2306 Y8.9086
G1 X18.2405 Y8.9133
G1 X18.2479 Y8.9177
G1 X18.2589 Y8.9255
G1 X18.2688 Y8.9347
G1 X18.2745 Y8.9411
G1 X18.2811 Y8.9500
G1 X18.2867 Y8.9595
G1 X18.2905 Y8.9672
G1 X18.2955 Y8.9810
G1 X18.2979 Y8.9906
G1 X18.2992 Y8.9990
G1 X18.3000 Y9.0125
G1 X18.3000 Y9.9637
G1 X18.2995 Y9.9735
G1 X18.2979 Y9.9845
G1 X18.2952 Y9.9952
G1 X18.2923 Y10.0033
G1 X18.2861 Y10.0166
G1 X18.2811 Y10.0250
G1 X18.2751 Y10.0331
G1 X18.2751 Y10.0891
G1 X18.2763 Y10.0918
G1 X18.2808 Y10.0989
G1 X18.2843 Y10.1068
G1 X18.2969 Y10.1473
G1 X18.2985 Y10.1557
G1 X18.2987 Y10.1606
G1 X18.2985 Y10.1661
G1 X18.2999 Y10.1750
G1 X21.9501 Y10.1750
G1 X21.9510 Y10.1685
G1 X21.9609 Y10.1258
G1 X21.9621 Y10.1174
G1 X21.9633 Y10.1126
G1 X21.9655 Y10.1068
G1 X21.9692 Y10.0990
G1 X21.9716 Y10.0949
G1 X21.9750 Y10.0903
G1 X21.9750 Y10.0331
G1 X21.9690 Y10.0250
G1 X21.9639 Y10.0166
G1 X21.9577 Y10.0033
G1 X21.9549 Y9.9952
G1 X21.9522 Y9.9845
G1 X21.9506 Y9.9735
G1 X21.9500 Y9.9637
G1 X21.9500 Y9.0125
G1 X21.9506 Y9.0015
G1 X21.9518 Y8.9930
G1 X21.9556 Y8.9775
G1 X21.9586 Y8.9695
G1 X21.9633 Y8.9595
G1 X21.9690 Y8.9500
G1 X21.9750 Y8.9419
G1 X21.9750 Y8.6250
G1 X21.9757 Y8.6103
G1 X21.9783 Y8.5937
G1 X21.9762 Y8.5854
G1 X21.9755 Y8.5771
G1 X21.9755 Y8.2650
G1 X21.9758 Y8.2598
G1 X21.9850 Y8.2094
G1 X21.9881 Y8.2001
G1 X21.9924 Y8.1926
G1 X22.0391 Y8.1313
G1 X22.0452 Y8.1257
G1 X22.0743 Y8.1043
G1 X22.1442 Y8.0095
G1 X22.1835 Y7.8971
G1 X22.1855 Y7.8757
G1 X22.1855 Y7.4943
G1 X22.1835 Y7.4729
G1 X22.1442 Y7.3605
G1 X22.1047 Y7.3070
G1 X22.0942 Y7.2907
G1 X22.0908 Y7.2840
G1 X22.0882 Y7.2757
G1 X22.0728 Y7.2075
G1 X22.0720 Y7.2027
G1 X22.0716 Y7.1965
G1 X22.0724 Y7.1878
G1 X22.0742 Y7.1806
G1 X22.1005 Y7.1094
G1 X22.1047 Y7.1022
G1 X22.1437 Y7.0493
G1 X22.1830 Y6.9370
G1 X22.1841 Y6.9250
G1 X21.9752 Y6.9250
G1 X21.9705 Y6.9377
G1 X21.9626 Y6.9546
G1 X21.9530 Y6.9706
G1 X21.9434 Y6.9836
G1 X21.9276 Y7.0011
G1 X21.9155 Y7.0119
G1 X21.9016 Y7.0223
G1 X21.8824 Y7.0337
G1 X21.8677 Y7.0405
G1 X21.8502 Y7.0468
G1 X21.8321 Y7.0514
G1 X21.8161 Y7.0538
G1 X21.7950 Y7.0550
G1 X21.4550 Y7.0550
G1 X21.4364 Y7.0541
G1 X21.4192 Y7.0516
G1 X21.3999 Y7.0468
G1 X21.3801 Y7.0396
G1 X21.3654 Y7.0326
G1 X21.3515 Y7.0243
G1 X21.3335 Y7.0111
G1 X21.3207 Y6.9994
G1 X21.3097 Y6.9874
G1 X21.2970 Y6.9706
G1 X21.2863 Y6.9524
G1 X21.2795 Y6.9377
G1 X21.2749 Y6.9250
G1 X21.0659 Y6.9250
G1 X21.0670 Y6.9370
G1 X21.1063 Y7.0493
G1 X21.1453 Y7.1021
G1 X21.1558 Y7.1185
G1 X21.1597 Y7.1263
G1 X21.1619 Y7.1335
G1 X21.1772 Y7.2016
G1 X21.1780 Y7.2065
G1 X21.1784 Y7.2127
G1 X21.1778 Y7.2201
G1 X21.1758 Y7.2286
G1 X21.1496 Y7.2998
G1 X21.1454 Y7.3070
G1 X21.1059 Y7.3605
G1 X21.0665 Y7.4729
G1 X21.0645 Y7.4943
G1 X21.0645 Y7.8757
G1 X21.0665 Y7.8971
G1 X21.1059 Y8.0095
G1 X21.1758 Y8.1043
G1 X21.2079 Y8.1283
G1 X21.2413 Y8.1637
G1 X21.2459 Y8.1695
G1 X21.2497 Y8.1758
G1 X21.2524 Y8.1827
G1 X21.2725 Y8.2509
G1 X21.2740 Y8.2579
G1 X21.2745 Y8.2650
G1 X21.2745 Y8.5267
G1 X21.2736 Y8.5350
G1 X21.2616 Y8.5901
G1 X21.2580 Y8.5994
G1 X21.2527 Y8.6078
G1 X21.2053 Y8.6626
G1 X21.2010 Y8.6670
G1 X21.1961 Y8.6709
G1 X21.1919 Y8.6735
G1 X21.1863 Y8.6762
G1 X21.1146 Y8.6975
G1 X21.1076 Y8.6990
G1 X21.1005 Y8.6995
G1 X21.0317 Y8.6995
G1 X20.9724 Y8.7081
G1 X20.9514 Y8.7184
G1 X20.9416 Y8.7228
G1 X20.9356 Y8.7245
G1 X20.9297 Y8.7255
G1 X20.9024 Y8.7336
G1 X20.8965 Y8.7348
G1 X20.8905 Y8.7352
G1 X20.8858 Y8.7351
G1 X20.8712 Y8.7329
G1 X20.8590 Y8.7343
G1 X20.8519 Y8.7344
G1 X20.8266 Y8.7305
G1 X20.8207 Y8.7288
G1 X20.8162 Y8.7270
G1 X20.7776 Y8.7081
G1 X20.7183 Y8.6995
G1 X20.6395 Y8.6995
G1 X20.6338 Y8.6992
G1 X20.6164 Y8.6961
G1 X20.5788 Y8.6845
G1 X20.5712 Y8.6805
G1 X20.5653 Y8.6761
G1 X20.5115 Y8.6295
G1 X20.5072 Y8.6251
G1 X20.5035 Y8.6201
G1 X20.4998 Y8.6136
G1 X20.4972 Y8.6066
G1 X20.4772 Y8.5385
G1 X20.4756 Y8.5291
G1 X20.4755 Y7.1789
G1 X20.4516 Y7.0897
G1 X20.4055 Y7.0098
G1 X19.5402 Y6.1445
G1 X19.4603 Y6.0984
G1 X19.3712 Y6.0745
G1 X16.0789 Y6.0745
G1 X15.9897 Y6.0984
G1 X15.9098 Y6.1445
G1 X15.7271 Y6.3272
G1 X15.7222 Y6.3313
G1 X15.6917 Y6.3537
G1 X15.6833 Y6.3586
G1 X15.6788 Y6.3605
G1 X15.6730 Y6.3622
G1 X15.6032 Y6.3759
G1 X15.5958 Y6.3768
G1 X15.5896 Y6.3766
G1 X15.5823 Y6.3755
G1 X15.5752 Y6.3733
G1 X15.5091 Y6.3471
G1 X15.5004 Y6.3423
G1 X15.4945 Y6.3376
G1 X15.4887 Y6.3312
G1 X15.4473 Y6.2734
G1 X15.4441 Y6.2684
G1 X15.4407 Y6.2608
G1 X15.4047 Y6.1578
G1 X15.3429 Y6.0737
G1 X15.3396 Y6.0671
G1 X15.3162 Y6.0100
G1 X15.3141 Y6.0031
G1 X15.3131 Y5.9971
G1 X15.3129 Y5.9911
G1 X15.3134 Y5.9850
G1 X15.3238 Y5.9134
G1 X15.3266 Y5.9039
G1 X15.3293 Y5.8984
G1 X15.3320 Y5.8942
G1 X15.3834 Y5.8347
G1 X15.3880 Y5.8306
G1 X15.3932 Y5.8272
G1 X15.3987 Y5.8243
G1 X15.4033 Y5.8226
G1 X15.4716 Y5.8025
G1 X15.4797 Y5.8009
G1 X15.4856 Y5.8005
G1 X15.6151 Y5.8005
G1 X15.6942 Y5.7910
G1 X15.8226 Y5.7404
G1 X15.9322 Y5.6572
G1 X16.0154 Y5.5476
G1 X16.0595 Y5.4357
G1 X16.0647 Y5.4241
G1 X16.0700 Y5.4162
G1 X16.1182 Y5.3606
G1 X16.1228 Y5.3564
G1 X16.1268 Y5.3535
G1 X16.1322 Y5.3504
G1 X16.1379 Y5.3480
G1 X16.2073 Y5.3275
G1 X16.2143 Y5.3260
G1 X16.2214 Y5.3255
G1 X29.5612 Y5.3255
G1 X29.6503 Y5.3016
G1 X29.7302 Y5.2555
G1 X30.5802 Y4.4055
G1 X30.6058 Y4.3848
G1 X30.6110 Y4.3815
G1 X30.6154 Y4.3793
G1 X30.6211 Y4.3772
G1 X30.6882 Y4.3575
G1 X30.6940 Y4.3562
G1 X30.7023 Y4.3555
G1 X37.1012 Y4.3555
G1 X37.1903 Y4.3316
G1 X37.2702 Y4.2855
G1 X37.6042 Y3.9515
G1 X37.6298 Y3.9305
G1 X37.6381 Y3.9253
G1 X37.6461 Y3.9222
G1 X37.7132 Y3.9025
G1 X37.7190 Y3.9012
G1 X37.7249 Y3.9006
G1 X37.9591 Y3.9005
G1 X37.9919 Y3.9040
G1 X38.0072 Y3.9077
G1 X38.0131 Y3.9099
G1 X38.0176 Y3.9122
G1 X38.0440 Y3.9291
G1 X38.0715 Y3.9441
G1 X38.0763 Y3.9475
G1 X38.0799 Y3.9506
G1 X38.7180 Y4.5888
G1 X38.7227 Y4.5949
G1 X38.7510 Y4.6379
G1 X38.7539 Y4.6433
G1 X38.7561 Y4.6490
G1 X38.7576 Y4.6549
G1 X38.7583 Y4.6598
G1 X38.7649 Y4.7343
G1 X38.7645 Y4.7405
G1 X38.7636 Y4.7454
G1 X38.7618 Y4.7513
G1 X38.7599 Y4.7559
G1 X38.7265 Y4.8201
G1 X38.7231 Y4.8253
G1 X38.7192 Y4.8301
G1 X38.7137 Y4.8351
G1 X38.7086 Y4.8387
G1 X38.6469 Y4.8740
G1 X38.6390 Y4.8777
G1 X38.6306 Y4.8799
G1 X38.6208 Y4.8806
G1 X38.5733 Y4.8782
G1 X38.5672 Y4.8792
G1 X38.5598 Y4.8794
G1 X38.5537 Y4.8788
G1 X38.5469 Y4.8774
G1 X38.5219 Y4.8750
G1 X37.9950 Y4.8750
G1 X37.9950 Y5.0750
G1 X38.4700 Y5.0750
G1 X38.4896 Y5.0760
G1 X38.5078 Y5.0786
G1 X38.5304 Y5.0844
G1 X38.5465 Y5.0902
G1 X38.5643 Y5.0986
G1 X38.5831 Y5.1101
G1 X38.5969 Y5.1204
G1 X38.6106 Y5.1327
G1 X38.6261 Y5.1501
G1 X38.6363 Y5.1639
G1 X38.6458 Y5.1797
G1 X38.6552 Y5.1996
G1 X38.6610 Y5.2158
G1 X38.6635 Y5.2250
G1 X38.8700 Y5.2250
G1 X38.8677 Y5.1981
G1 X38.8658 Y5.1876
G1 X38.8657 Y5.1791
G1 X38.8615 Y5.1471
G1 X38.8614 Y5.1410
G1 X38.8620 Y5.1349
G1 X38.8645 Y5.1254
G1 X38.8893 Y5.0588
G1 X38.8933 Y5.0511
G1 X38.8985 Y5.0441
G1 X38.9058 Y5.0374
G1 X38.9627 Y4.9948
G1 X38.9691 Y4.9910
G1 X38.9771 Y4.9877
G1 X38.9869 Y4.9858
G1 X39.0603 Y4.9806
G1 X39.0665 Y4.9809
G1 X39.0726 Y4.9819
G1 X39.0786 Y4.9836
G1 X39.0842 Y4.9861
G1 X39.1477 Y5.0208
G1 X39.1527 Y5.0241
G1 X39.1580 Y5.0287
G1 X41.1048 Y6.9755
G1 X41.1847 Y7.0216
G1 X41.2739 Y7.0455
G1 X41.9337 Y7.0455
G1 X41.9389 Y7.0459
G1 X41.9452 Y7.0470
G1 X41.9517 Y7.0468
G1 X41.9591 Y7.0476
G1 X41.9663 Y7.0495
G1 X41.9726 Y7.0521
G1 X41.9903 Y7.0556
G1 X41.9961 Y7.0576
G1 X42.0016 Y7.0604
G1 X42.0058 Y7.0631
G1 X42.0197 Y7.0736
G1 X42.0366 Y7.0814
G1 X42.0446 Y7.0866
G1 X42.0577 Y7.0979
G1 X42.0620 Y7.1023
G1 X42.0836 Y7.1314
G1 X42.1680 Y7.1937
G1 X42.1831 Y7.2073
G1 X42.1880 Y7.2130
G1 X42.1926 Y7.2204
G1 X42.2037 Y7.2326
G1 X42.2078 Y7.2388
G1 X42.2113 Y7.2467
G1 X42.2169 Y7.2656
G1 X42.2262 Y7.2830
G1 X42.2296 Y7.2924
G1 X42.2310 Y7.3022
G1 X42.2306 Y7.3123
G1 X42.2326 Y7.3197
G1 X42.2335 Y7.3258
G1 X42.2337 Y7.3320
G1 X42.2330 Y7.3382
G1 X42.2320 Y7.3430
G1 X42.2268 Y7.3608
G1 X42.2252 Y7.3805
G1 X42.2233 Y7.3890
G1 X42.2195 Y7.3981
G1 X42.2169 Y7.4024
G1 X42.2130 Y7.4075
G1 X42.2107 Y7.4148
G1 X42.2076 Y7.4215
G1 X42.2042 Y7.4268
G1 X42.2011 Y7.4306
G1 X42.1976 Y7.4341
G1 X42.1836 Y7.4463
G1 X42.1717 Y7.4619
G1 X42.1658 Y7.4678
G1 X42.0836 Y7.5286
G1 X42.0119 Y7.6258
G1 X41.9716 Y7.7411
G1 X41.9695 Y7.7631
G1 X41.9695 Y8.1669
G1 X41.9716 Y8.1890
G1 X42.0119 Y8.3043
G1 X42.0836 Y8.4014
G1 X42.1641 Y8.4608
G1 X42.1816 Y8.4759
G1 X42.1866 Y8.4812
G1 X42.1920 Y8.4893
G1 X42.2262 Y8.5530
G1 X42.2281 Y8.5576
G1 X42.2298 Y8.5636
G1 X42.2308 Y8.5697
G1 X42.2310 Y8.5747
G1 X42.2252 Y8.6505
G1 X42.2229 Y8.6602
G1 X42.2188 Y8.6692
G1 X42.2154 Y8.6744
G1 X42.1732 Y8.7300
G1 X42.1676 Y8.7362
G1 X42.1630 Y8.7400
G1 X42.0836 Y8.7986
G1 X42.0119 Y8.8958
G1 X41.9716 Y9.0111
G1 X41.9695 Y9.0331
G1 X41.9695 Y9.4369
G1 X41.9716 Y9.4590
G1 X42.0119 Y9.5743
G1 X42.0836 Y9.6714
G1 X42.1808 Y9.7431
G1 X42.2961 Y9.7834
G1 X42.3181 Y9.7855
G1 X42.5229 Y9.7856
G1 X42.5311 Y9.7867
G1 X42.5839 Y9.7981
G1 X42.5898 Y9.8000
G1 X42.5944 Y9.8020
G1 X42.5998 Y9.8051
G1 X42.6038 Y9.8081
G1 X42.6585 Y9.8555
G1 X42.6628 Y9.8600
G1 X42.6666 Y9.8649
G1 X42.6702 Y9.8714
G1 X42.6728 Y9.8784
G1 X42.6928 Y9.9466
G1 X42.6940 Y9.9524
G1 X42.6945 Y9.9583
G1 X42.6945 Y10.5023
G1 X42.6937 Y10.5101
G1 X42.6853 Y10.5556
G1 X42.6840 Y10.5604
G1 X42.6818 Y10.5661
G1 X42.6769 Y10.5746
G1 X42.6331 Y10.6321
G1 X42.6274 Y10.6381
G1 X42.6214 Y10.6427
G1 X42.6029 Y10.6544
G1 X42.5983 Y10.6564
G1 X42.5934 Y10.6580
G1 X42.5838 Y10.6631
G1 X42.5767 Y10.6658
G1 X42.5681 Y10.6676
G1 X42.5440 Y10.6692
G1 X42.5205 Y10.6744
G1 X42.5106 Y10.6751
G1 X42.5032 Y10.6744
G1 X42.4953 Y10.6723
G1 X42.4896 Y10.6723
G1 X42.4847 Y10.6717
G1 X42.4763 Y10.6696
G1 X42.4694 Y10.6666
G1 X42.4495 Y10.6555
G1 X42.4281 Y10.6477
G1 X42.4227 Y10.6452
G1 X42.4167 Y10.6414
G1 X42.3272 Y10.5753
G1 X42.2161 Y10.5365
G1 X42.1951 Y10.5345
G1 X41.8249 Y10.5345
G1 X41.8039 Y10.5365
G1 X41.6928 Y10.5753
G1 X41.5993 Y10.6443
G1 X41.5303 Y10.7378
G1 X41.4915 Y10.8489
G1 X41.4895 Y10.8699
G1 X41.4895 Y11.3401
G1 X41.4915 Y11.3611
G1 X41.5303 Y11.4722
G1 X41.6016 Y11.5687
G1 X41.6088 Y11.5763
G1 X41.6117 Y11.5802
G1 X41.6145 Y11.5849
G1 X41.6255 Y11.5967
G1 X41.6304 Y11.6037
G1 X41.6332 Y11.6092
G1 X41.6353 Y11.6150
G1 X41.6550 Y11.6820
G1 X41.6568 Y11.6913
G1 X41.6570 Y12.9779
G1 X41.6566 Y12.9893
G1 X41.6554 Y12.9964
G1 X41.6304 Y13.0681
G1 X41.6266 Y13.0759
G1 X41.6215 Y13.0830
G1 X41.6153 Y13.0890
G1 X41.5804 Y13.1162
G1 X41.5754 Y13.1223
G1 X41.5699 Y13.1273
G1 X41.5659 Y13.1301
G1 X41.5594 Y13.1338
G1 X41.4538 Y13.2138
G1 X41.3738 Y13.3194
G1 X41.3701 Y13.3258
G1 X41.3672 Y13.3299
G1 X41.3305 Y13.3721
G1 X41.3230 Y13.3783
G1 X41.3144 Y13.3829
G1 X41.2470 Y13.4090
G1 X41.2410 Y13.4107
G1 X41.2337 Y13.4118
G1 X41.2275 Y13.4119
G1 X41.2213 Y13.4112
G1 X41.1504 Y13.3967
G1 X41.1456 Y13.3953
G1 X41.1399 Y13.3930
G1 X41.1355 Y13.3906
G1 X41.1305 Y13.3870
G1 X41.0735 Y13.3315
G1 X41.0699 Y13.3267
G1 X41.0658 Y13.3196
G1 X40.9858 Y13.2142
G1 X40.8832 Y13.1363
G1 X40.7629 Y13.0889
G1 X40.6889 Y13.0800
G1 X40.6325 Y13.0800
G1 X40.6325 Y13.2800
G1 X40.6525 Y13.2800
G1 X40.6764 Y13.2812
G1 X40.7025 Y13.2850
G1 X40.7293 Y13.2916
G1 X40.7530 Y13.3000
G1 X40.7780 Y13.3117
G1 X40.8006 Y13.3253
G1 X40.8218 Y13.3410
G1 X40.8404 Y13.3579
G1 X40.8590 Y13.3783
G1 X40.8747 Y13.3995
G1 X40.8883 Y13.4221
G1 X40.8996 Y13.4459
G1 X40.9084 Y13.4707
G1 X40.9148 Y13.4963
G1 X40.9187 Y13.5224
G1 X40.9200 Y13.5488
G1 X40.9200 Y14.0625
G1 X40.9187 Y14.0876
G1 X40.9153 Y14.1113
G1 X40.9084 Y14.1393
G1 X40.8996 Y14.1641
G1 X40.8894 Y14.1858
G1 X40.8733 Y14.2126
G1 X40.8590 Y14.2318
G1 X40.8413 Y14.2513
G1 X40.8218 Y14.2690
G1 X40.8016 Y14.2840
G1 X40.7780 Y14.2983
G1 X40.7564 Y14.3086
G1 X40.7281 Y14.3188
G1 X40.7037 Y14.3248
G1 X40.6788 Y14.3286
G1 X40.6525 Y14.3300
G1 X40.6325 Y14.3300
G1 X40.6325 Y14.5300
G1 X40.6889 Y14.5300
G1 X40.7629 Y14.5211
G1 X40.8832 Y14.4737
G1 X40.9858 Y14.3958
G1 X41.0658 Y14.2904
G1 X41.0693 Y14.2842
G1 X41.0722 Y14.2801
G1 X41.1064 Y14.2406
G1 X41.1116 Y14.2354
G1 X41.1174 Y14.2311
G1 X41.1250 Y14.2271
G1 X41.1924 Y14.2010
G1 X41.1972 Y14.1996
G1 X41.2033 Y14.1984
G1 X41.2107 Y14.1981
G1 X41.2181 Y14.1989
G1 X41.2890 Y14.2134
G1 X41.2950 Y14.2151
G1 X41.2995 Y14.2171
G1 X41.3049 Y14.2201
G1 X41.3090 Y14.2230
G1 X41.3660 Y14.2786
G1 X41.3695 Y14.2833
G1 X41.3738 Y14.2907
G1 X41.4538 Y14.3962
G1 X41.5566 Y14.4741
G1 X41.6770 Y14.5216
G1 X41.7511 Y14.5305
G1 X42.2639 Y14.5305
G1 X42.3380 Y14.5216
G1 X42.4584 Y14.4741
G1 X42.5612 Y14.3962
G1 X42.6391 Y14.2934
G1 X42.6866 Y14.1730
G1 X42.6955 Y14.0989
G1 X42.6955 Y13.5111
G1 X42.6866 Y13.4370
G1 X42.6391 Y13.3166
G1 X42.5612 Y13.2138
G1 X42.4569 Y13.1347
G1 X42.4481 Y13.1294
G1 X42.4442 Y13.1265
G1 X42.4405 Y13.1232
G1 X42.4365 Y13.1187
G1 X42.3950 Y13.0827
G1 X42.3897 Y13.0774
G1 X42.3840 Y13.0693
G1 X42.3801 Y13.0602
G1 X42.3600 Y12.9920
G1 X42.3582 Y12.9826
G1 X42.3580 Y11.7163
G1 X42.3592 Y11.7065
G1 X42.3749 Y11.6443
G1 X42.3766 Y11.6397
G1 X42.3792 Y11.6343
G1 X42.3825 Y11.6292
G1 X42.3855 Y11.6254
G1 X42.4371 Y11.5731
G1 X42.4419 Y11.5691
G1 X42.4460 Y11.5663
G1 X42.4526 Y11.5629
G1 X42.4609 Y11.5603
G1 X42.5303 Y11.5447
G1 X42.5364 Y11.5439
G1 X42.5414 Y11.5438
G1 X42.5488 Y11.5445
G1 X42.5560 Y11.5464
G1 X42.6228 Y11.5707
G1 X42.6293 Y11.5737
G1 X42.6353 Y11.5775
G1 X42.7128 Y11.6347
G1 X42.8239 Y11.6735
G1 X42.8449 Y11.6755
G1 X43.2151 Y11.6755
G1 X43.2361 Y11.6735
G1 X43.3472 Y11.6347
G1 X43.4407 Y11.5657
G1 X43.5097 Y11.4722
G1 X43.5485 Y11.3611
G1 X43.5505 Y11.3401
G1 X43.5505 Y10.8699
G1 X43.5485 Y10.8489
G1 X43.5097 Y10.7378
G1 X43.4248 Y10.6228
G1 X43.4215 Y10.6176
G1 X43.4188 Y10.6121
G1 X43.4172 Y10.6074
G1 X43.3975 Y10.5404
G1 X43.3960 Y10.5334
G1 X43.3955 Y10.5263
G1 X43.3955 Y9.9583
G1 X43.3967 Y9.9489
G1 X43.4088 Y9.8937
G1 X43.4120 Y9.8856
G1 X43.4173 Y9.8772
G1 X43.4655 Y9.8215
G1 X43.4700 Y9.8172
G1 X43.4749 Y9.8135
G1 X43.4803 Y9.8104
G1 X43.4849 Y9.8084
G1 X43.5566 Y9.7872
G1 X43.5659 Y9.7856
G1 X43.7719 Y9.7855
G1 X43.7940 Y9.7834
G1 X43.9093 Y9.7431
G1 X44.0064 Y9.6714
G1 X44.0781 Y9.5743
G1 X44.1184 Y9.4590
G1 X44.1205 Y9.4369
G1 X44.1205 Y9.1113
G1 X44.1211 Y9.0969
G1 X44.1232 Y9.0873
G1 X44.1488 Y9.0183
G1 X44.1528 Y9.0106
G1 X44.1572 Y9.0046
G1 X44.1643 Y8.9977
G1 X44.2232 Y8.9536
G1 X44.2286 Y8.9505
G1 X44.2343 Y8.9480
G1 X44.2402 Y8.9463
G1 X44.2451 Y8.9455
G1 X44.3185 Y8.9402
G1 X44.3247 Y8.9403
G1 X44.3321 Y8.9414
G1 X44.3381 Y8.9431
G1 X44.3448 Y8.9462
G1 X44.4072 Y8.9803
G1 X44.4149 Y8.9858
G1 X44.7013 Y9.2722
G1 X44.7203 Y9.2958
G1 X44.7235 Y9.3010
G1 X44.7257 Y9.3054
G1 X44.7278 Y9.3111
G1 X44.7475 Y9.3782
G1 X44.7488 Y9.3840
G1 X44.7495 Y9.3911
G1 X44.7495 Y9.5801
G1 X44.7515 Y9.6011
G1 X44.7903 Y9.7122
G1 X44.8570 Y9.8026
G1 X44.8675 Y9.8189
G1 X44.8705 Y9.8244
G1 X44.8723 Y9.8291
G1 X44.8736 Y9.8339
G1 X44.8889 Y9.9021
G1 X44.8899 Y9.9082
G1 X44.8901 Y9.9131
G1 X44.8894 Y9.9218
G1 X44.8875 Y9.9290
G1 X44.8631 Y9.9958
G1 X44.8602 Y10.0023
G1 X44.8564 Y10.0083
G1 X44.7903 Y10.0978
G1 X44.7515 Y10.2089
G1 X44.7495 Y10.2299
G1 X44.7495 Y10.6001
G1 X44.7515 Y10.6211
G1 X44.7903 Y10.7322
G1 X44.8593 Y10.8257
G1 X44.9029 Y10.8581
G1 X44.9363 Y10.8936
G1 X44.9402 Y10.8983
G1 X44.9447 Y10.9057
G1 X44.9474 Y10.9125
G1 X44.9678 Y10.9819
G1 X44.9690 Y10.9877
G1 X44.9695 Y10.9948
G1 X44.9695 Y11.4003
G1 X44.9662 Y11.4332
G1 X44.9644 Y11.4416
G1 X44.9611 Y11.4495
G1 X44.9265 Y11.5129
G1 X44.9232 Y11.5179
G1 X44.9202 Y11.5216
G1 X44.5633 Y11.8785
G1 X44.5387 Y11.8988
G1 X44.5316 Y11.9035
G1 X44.5271 Y11.9057
G1 X44.5214 Y11.9078
G1 X44.4532 Y11.9278
G1 X44.4438 Y11.9294
G1 X44.0261 Y11.9295
G1 X43.9520 Y11.9384
G1 X43.8316 Y11.9859
G1 X43.7288 Y12.0638
G1 X43.6509 Y12.1666
G1 X43.6034 Y12.2870
G1 X43.5945 Y12.3611
G1 X43.5945 Y12.8739
G1 X43.6034 Y12.9480
G1 X43.6509 Y13.0684
G1 X43.7288 Y13.1712
G1 X43.8344 Y13.2512
G1 X43.8408 Y13.2549
G1 X43.8450 Y13.2578
G1 X43.8845 Y13.2920
G1 X43.8896 Y13.2972
G1 X43.8940 Y13.3030
G1 X43.8979 Y13.3106
G1 X43.9236 Y13.3769
G1 X43.9262 Y13.3864
G1 X43.9269 Y13.3963
G1 X43.9259 Y13.4049
G1 X43.9114 Y13.4758
G1 X43.9095 Y13.4817
G1 X43.9074 Y13.4862
G1 X43.9020 Y13.4946
G1 X43.8465 Y13.5515
G1 X43.8417 Y13.5551
G1 X43.8346 Y13.5592
G1 X43.7292 Y13.6392
G1 X43.6513 Y13.7419
G1 X43.6039 Y13.8621
G1 X43.5950 Y13.9361
G1 X43.5950 Y13.9925
G1 X43.7950 Y13.9925
G1 X43.7950 Y13.9725
G1 X43.7962 Y13.9486
G1 X43.8000 Y13.9225
G1 X43.8066 Y13.8957
G1 X43.8150 Y13.8721
G1 X43.8267 Y13.8471
G1 X43.8403 Y13.8245
G1 X43.8560 Y13.8033
G1 X43.8729 Y13.7846
G1 X43.8933 Y13.7660
G1 X43.9145 Y13.7503
G1 X43.9371 Y13.7367
G1 X43.9609 Y13.7255
G1 X43.9857 Y13.7166
G1 X44.0113 Y13.7102
G1 X44.0374 Y13.7063
G1 X44.0638 Y13.7050
G1 X44.5775 Y13.7050
G1 X44.6026 Y13.7063
G1 X44.6263 Y13.7098
G1 X44.6543 Y13.7166
G1 X44.6791 Y13.7255
G1 X44.7008 Y13.7356
G1 X44.7276 Y13.7517
G1 X44.7468 Y13.7660
G1 X44.7663 Y13.7837
G1 X44.7840 Y13.8033
G1 X44.7990 Y13.8234
G1 X44.8133 Y13.8471
G1 X44.8236 Y13.8687
G1 X44.8338 Y13.8969
G1 X44.8398 Y13.9213
G1 X44.8436 Y13.9462
G1 X44.8450 Y13.9725
G1 X44.8450 Y13.9925
G1 X45.0450 Y13.9925
G1 X45.0450 Y13.9361
G1 X45.0361 Y13.8621
G1 X44.9887 Y13.7419
G1 X44.9108 Y13.6392
G1 X44.8054 Y13.5592
G1 X44.7992 Y13.5557
G1 X44.7951 Y13.5528
G1 X44.7556 Y13.5186
G1 X44.7496 Y13.5125
G1 X44.7454 Y13.5065
G1 X44.7421 Y13.5000
G1 X44.7156 Y13.4314
G1 X44.7140 Y13.4254
G1 X44.7132 Y13.4193
G1 X44.7132 Y13.4130
G1 X44.7139 Y13.4069
G1 X44.7287 Y13.3348
G1 X44.7315 Y13.3266
G1 X44.7365 Y13.3180
G1 X44.7413 Y13.3123
G1 X44.7936 Y13.2591
G1 X44.7983 Y13.2555
G1 X44.8057 Y13.2512
G1 X44.9112 Y13.1712
G1 X44.9891 Y13.0684
G1 X45.0366 Y12.9480
G1 X45.0455 Y12.8739
G1 X45.0457 Y12.4558
G1 X45.0490 Y12.4256
G1 X45.0503 Y12.4196
G1 X45.0519 Y12.4150
G1 X45.0545 Y12.4094
G1 X45.0885 Y12.3471
G1 X45.0918 Y12.3421
G1 X45.0965 Y12.3367
G1 X45.6005 Y11.8327
G1 X45.6466 Y11.7528
G1 X45.6705 Y11.6637
G1 X45.6705 Y10.9948
G1 X45.6711 Y10.9871
G1 X45.6797 Y10.9405
G1 X45.6826 Y10.9311
G1 X45.6874 Y10.9225
G1 X45.7318 Y10.8639
G1 X45.7358 Y10.8595
G1 X45.7402 Y10.8555
G1 X45.7807 Y10.8257
G1 X45.8497 Y10.7322
G1 X45.8885 Y10.6211
G1 X45.8905 Y10.6001
G1 X45.8905 Y10.2299
G1 X45.8885 Y10.2089
G1 X45.8497 Y10.0978
G1 X45.7830 Y10.0075
G1 X45.7725 Y9.9911
G1 X45.7696 Y9.9856
G1 X45.7678 Y9.9810
G1 X45.7664 Y9.9761
G1 X45.7511 Y9.9080
G1 X45.7503 Y9.9031
G1 X45.7499 Y9.8969
G1 X45.7505 Y9.8895
G1 X45.7525 Y9.8810
G1 X45.7769 Y9.8142
G1 X45.7798 Y9.8077
G1 X45.7836 Y9.8017
G1 X45.8497 Y9.7122
G1 X45.8885 Y9.6011
G1 X45.8905 Y9.5801
G1 X45.8905 Y9.2099
G1 X45.8885 Y9.1889
G1 X45.8497 Y9.0778
G1 X45.7807 Y8.9843
G1 X45.6872 Y8.9153
G1 X45.5761 Y8.8765
G1 X45.5551 Y8.8745
G1 X45.3659 Y8.8745
G1 X45.3307 Y8.8706
G1 X45.3236 Y8.8686
G1 X45.3169 Y8.8656
G1 X45.2546 Y8.8315
G1 X45.2496 Y8.8282
G1 X45.2451 Y8.8244
G1 X44.1215 Y7.7007
G1 X44.1162 Y7.6938
G1 X44.0862 Y7.6460
G1 X44.0829 Y7.6393
G1 X44.0781 Y7.6258
G1 X44.0064 Y7.5286
G1 X43.9260 Y7.4692
G1 X43.9160 Y7.4612
G1 X43.9075 Y7.4532
G1 X43.9034 Y7.4488
G1 X43.8998 Y7.4439
G1 X43.8846 Y7.4159
G1 X43.8669 Y7.3878
G1 X43.8636 Y7.3798
G1 X43.8605 Y7.3677
G1 X43.8593 Y7.3616
G1 X43.8590 Y7.3554
G1 X43.8613 Y7.3235
G1 X43.8616 Y7.2903
G1 X43.8623 Y7.2853
G1 X43.8639 Y7.2793
G1 X43.8679 Y7.2675
G1 X43.8712 Y7.2608
G1 X43.8746 Y7.2557
G1 X43.8917 Y7.2331
G1 X43.9076 Y7.2084
G1 X43.9128 Y7.2019
G1 X43.9231 Y7.1929
G1 X44.0064 Y7.1314
G1 X44.0265 Y7.1042
G1 X44.0314 Y7.0987
G1 X44.0454 Y7.0866
G1 X44.0616 Y7.0745
G1 X44.0666 Y7.0713
G1 X44.0731 Y7.0684
G1 X44.1447 Y7.0472
G1 X44.1493 Y7.0462
G1 X44.1553 Y7.0456
G1 X44.5212 Y7.0455
G1 X44.6103 Y7.0216
G1 X44.6902 Y6.9755
G1 X45.9355 Y5.7302
G1 X45.9816 Y5.6503
G1 X46.0055 Y5.5612
G1 X46.0055 Y2.8374
G1 X46.0059 Y2.8310
G1 X46.0083 Y2.8179
G1 X46.0081 Y2.8095
G1 X46.0091 Y2.8022
G1 X46.0108 Y2.7962
G1 X46.0134 Y2.7902
G1 X46.0159 Y2.7783
G1 X46.0198 Y2.7693
G1 X46.0231 Y2.7641
G1 X46.0366 Y2.7463
G1 X46.0476 Y2.7255
G1 X46.0532 Y2.7178
G1 X46.0627 Y2.7080
G1 X46.0662 Y2.7049
G1 X46.1057 Y2.6757
G1 X46.1427 Y2.6259
G1 X46.1526 Y2.6158
G1 X46.1762 Y2.5965
G1 X46.1812 Y2.5928
G1 X46.1899 Y2.5876
G1 X46.1991 Y2.5838
G1 X46.2319 Y2.5760
G1 X46.2630 Y2.5669
G1 X46.2724 Y2.5656
G1 X48.6391 Y2.5655
G1 X48.6719 Y2.5690
G1 X48.6779 Y2.5703
G1 X48.6825 Y2.5719
G1 X48.6881 Y2.5745
G1 X48.7494 Y2.6079
G1 X48.7535 Y2.6104
G1 X48.7582 Y2.6140
G1 X50.0760 Y3.9317
G1 X50.0796 Y3.9357
G1 X50.0978 Y3.9583
G1 X50.1016 Y3.9646
G1 X50.1041 Y3.9702
G1 X50.1253 Y4.0418
G1 X50.1265 Y4.0477
G1 X50.1270 Y4.0536
G1 X50.1270 Y4.6099
G1 X50.1266 Y4.6214
G1 X50.1247 Y4.6308
G1 X50.0999 Y4.7013
G1 X50.0960 Y4.7090
G1 X50.0899 Y4.7169
G1 X50.0843 Y4.7219
G1 X50.0283 Y4.7655
G1 X50.0233 Y4.7687
G1 X50.0173 Y4.7716
G1 X49.9131 Y4.8506
G1 X49.8341 Y4.9548
G1 X49.7860 Y5.0768
G1 X49.7770 Y5.1519
G1 X49.7770 Y5.9782
G1 X49.7860 Y6.0532
G1 X49.8341 Y6.1753
G1 X49.9131 Y6.2794
G1 X50.0173 Y6.3584
G1 X50.1393 Y6.4065
G1 X50.2144 Y6.4155
G1 X50.7407 Y6.4155
G1 X50.8157 Y6.4065
G1 X50.9378 Y6.3584
G1 X51.0419 Y6.2794
G1 X51.1209 Y6.1753
G1 X51.1690 Y6.0532
G1 X51.1780 Y5.9782
G1 X51.1780 Y5.1519
G1 X51.1690 Y5.0768
G1 X51.1209 Y4.9548
G1 X51.0419 Y4.8506
G1 X50.9377 Y4.7716
G1 X50.9277 Y4.7672
G1 X50.9196 Y4.7621
G1 X50.8650 Y4.7148
G1 X50.8597 Y4.7095
G1 X50.8540 Y4.7014
G1 X50.8505 Y4.6934
G1 X50.8297 Y4.6229
G1 X50.8284 Y4.6159
G1 X50.8280 Y4.6099
G1 X50.8280 Y3.7914
G1 X50.8041 Y3.7022
G1 X50.7580 Y3.6223
G1 X49.0702 Y1.9345
G1 X48.9903 Y1.8884
G1 X48.9012 Y1.8645
G1 X46.2709 Y1.8644
G1 X46.2193 Y1.8551
G1 X46.2111 Y1.8524
G1 X46.2025 Y1.8477
G1 X46.1448 Y1.8040
G1 X46.1403 Y1.8001
G1 X46.1355 Y1.7948
G1 X46.1057 Y1.7543
G1 X46.0122 Y1.6853
G1 X45.9011 Y1.6465
G1 X45.8801 Y1.6445
G1 X45.5099 Y1.6445
G1 X45.4889 Y1.6465
G1 X45.3778 Y1.6853
G1 X45.2875 Y1.7520
G1 X45.2711 Y1.7625
G1 X45.2656 Y1.7655
G1 X45.2610 Y1.7673
G1 X45.2561 Y1.7686
G1 X45.1880 Y1.7839
G1 X45.1818 Y1.7849
G1 X45.1769 Y1.7851
G1 X45.1695 Y1.7846
G1 X45.1610 Y1.7825
G1 X45.0942 Y1.7581
G1 X45.0877 Y1.7552
G1 X45.0817 Y1.7514
G1 X44.9922 Y1.6853
G1 X44.8811 Y1.6465
G1 X44.8601 Y1.6445
G1 X44.4899 Y1.6445
G1 X44.4689 Y1.6465
G1 X44.3578 Y1.6853
G1 X44.2643 Y1.7543
G1 X44.2319 Y1.7979
G1 X44.1964 Y1.8313
G1 X44.1907 Y1.8359
G1 X44.1843 Y1.8397
G1 X44.1775 Y1.8424
G1 X44.1093 Y1.8625
G1 X44.1023 Y1.8640
G1 X44.0952 Y1.8645
G1 X42.9579 Y1.8643
G1 X42.9519 Y1.8636
G1 X42.9449 Y1.8619
G1 X42.8767 Y1.8379
G1 X42.8678 Y1.8335
G1 X42.8609 Y1.8282
G1 X42.8550 Y1.8219
G1 X42.8107 Y1.7648
G1 X42.8082 Y1.7608
G1 X42.8055 Y1.7554
G1 X42.7941 Y1.7266
G1 X42.7162 Y1.6238
G1 X42.6134 Y1.5459
G1 X42.4930 Y1.4984
G1 X42.4189 Y1.4895
G1 X41.9061 Y1.4895
G1 X41.8320 Y1.4984
G1 X41.7116 Y1.5459
G1 X41.6088 Y1.6238
G1 X41.5288 Y1.7294
G1 X41.5251 Y1.7358
G1 X41.5222 Y1.7399
G1 X41.4880 Y1.7795
G1 X41.4819 Y1.7854
G1 X41.4760 Y1.7896
G1 X41.4694 Y1.7929
G1 X41.4020 Y1.8190
G1 X41.3924 Y1.8214
G1 X41.3825 Y1.8219
G1 X41.3751 Y1.8209
G1 X41.3042 Y1.8064
G1 X41.2995 Y1.8049
G1 X41.2938 Y1.8024
G1 X41.2855 Y1.7970
G1 X41.2285 Y1.7415
G1 X41.2249 Y1.7367
G1 X41.2208 Y1.7296
G1 X41.1408 Y1.6242
G1 X41.0382 Y1.5463
G1 X40.9179 Y1.4989
G1 X40.8439 Y1.4900
G1 X40.7875 Y1.4900
G1 X40.7875 Y1.6900
G1 X40.8075 Y1.6900
G1 X40.8314 Y1.6912
G1 X40.8575 Y1.6950
G1 X40.8843 Y1.7016
G1 X40.9080 Y1.7100
G1 X40.9330 Y1.7217
G1 X40.9556 Y1.7353
G1 X40.9768 Y1.7510
G1 X40.9954 Y1.7679
G1 X41.0140 Y1.7883
G1 X41.0297 Y1.8095
G1 X41.0433 Y1.8321
G1 X41.0546 Y1.8559
G1 X41.0634 Y1.8807
G1 X41.0698 Y1.9063
G1 X41.0737 Y1.9324
G1 X41.0750 Y1.9588
G1 X41.0750 Y2.4725
G1 X41.0737 Y2.4976
G1 X41.0703 Y2.5213
G1 X41.0634 Y2.5493
G1 X41.0546 Y2.5741
G1 X41.0444 Y2.5958
G1 X41.0283 Y2.6226
G1 X41.0140 Y2.6418
G1 X40.9963 Y2.6613
G1 X40.9768 Y2.6790
G1 X40.9566 Y2.6940
G1 X40.9330 Y2.7083
G1 X40.9114 Y2.7186
G1 X40.8831 Y2.7288
G1 X40.8587 Y2.7348
G1 X40.8338 Y2.7386
G1 X40.8075 Y2.7400
G1 X40.7875 Y2.7400
G1 X40.7875 Y2.9400
G1 X40.8439 Y2.9400
G1 X40.9179 Y2.9311
G1 X41.0382 Y2.8837
G1 X41.1408 Y2.8058
G1 X41.2208 Y2.7004
G1 X41.2243 Y2.6942
G1 X41.2272 Y2.6901
G1 X41.2614 Y2.6506
G1 X41.2666 Y2.6454
G1 X41.2735 Y2.6404
G1 X41.2811 Y2.6367
G1 X41.3474 Y2.6110
G1 X41.3546 Y2.6090
G1 X41.3620 Y2.6081
G1 X41.3670 Y2.6082
G1 X41.3731 Y2.6089
G1 X41.4452 Y2.6237
G1 X41.4545 Y2.6271
G1 X41.4589 Y2.6294
G1 X41.4640 Y2.6330
G1 X41.5210 Y2.6886
G1 X41.5245 Y2.6933
G1 X41.5288 Y2.7007
G1 X41.6088 Y2.8062
G1 X41.7116 Y2.8841
G1 X41.8320 Y2.9316
G1 X41.9061 Y2.9405
G1 X42.4189 Y2.9405
G1 X42.4930 Y2.9316
G1 X42.6134 Y2.8841
G1 X42.7162 Y2.8062
G1 X42.7941 Y2.7034
G1 X42.8081 Y2.6684
G1 X42.8108 Y2.6631
G1 X42.8134 Y2.6590
G1 X42.8655 Y2.5989
G1 X42.8734 Y2.5928
G1 X42.8777 Y2.5904
G1 X42.8834 Y2.5880
G1 X42.9540 Y2.5672
G1 X42.9598 Y2.5660
G1 X42.9646 Y2.5656
G1 X44.0991 Y2.5657
G1 X44.1508 Y2.5750
G1 X44.1589 Y2.5776
G1 X44.1676 Y2.5824
G1 X44.2252 Y2.6261
G1 X44.2297 Y2.6299
G1 X44.2345 Y2.6352
G1 X44.2643 Y2.6757
G1 X44.3578 Y2.7447
G1 X44.4689 Y2.7835
G1 X44.4899 Y2.7855
G1 X44.8601 Y2.7855
G1 X44.8811 Y2.7835
G1 X44.9922 Y2.7447
G1 X45.0282 Y2.7181
G1 X45.0345 Y2.7144
G1 X45.0961 Y2.6890
G1 X45.1043 Y2.6868
G1 X45.1115 Y2.6861
G1 X45.1200 Y2.6866
G1 X45.1904 Y2.6968
G1 X45.1976 Y2.6985
G1 X45.2034 Y2.7008
G1 X45.2088 Y2.7038
G1 X45.2148 Y2.7083
G1 X45.2685 Y2.7548
G1 X45.2751 Y2.7622
G1 X45.2796 Y2.7696
G1 X45.2828 Y2.7777
G1 X45.3028 Y2.8459
G1 X45.3042 Y2.8529
G1 X45.3045 Y2.8589
G1 X45.3045 Y5.2978
G1 X45.3014 Y5.3295
G1 X45.3001 Y5.3367
G1 X45.2986 Y5.3414
G1 X45.2961 Y5.3470
G1 X45.2621 Y5.4094
G1 X45.2582 Y5.4154
G1 X45.2544 Y5.4199
G1 X44.3808 Y6.2935
G1 X44.3768 Y6.2971
G1 X44.3542 Y6.3153
G1 X44.3469 Y6.3197
G1 X44.3401 Y6.3224
G1 X44.2707 Y6.3428
G1 X44.2613 Y6.3444
G1 X44.1537 Y6.3444
G1 X44.1448 Y6.3430
G1 X44.1371 Y6.3432
G1 X44.1297 Y6.3422
G1 X44.1237 Y6.3405
G1 X44.1175 Y6.3380
G1 X44.1021 Y6.3351
G1 X44.0939 Y6.3324
G1 X44.0853 Y6.3277
G1 X44.0703 Y6.3164
G1 X44.0534 Y6.3086
G1 X44.0454 Y6.3034
G1 X44.0323 Y6.2921
G1 X44.0281 Y6.2877
G1 X44.0064 Y6.2586
G1 X43.9220 Y6.1963
G1 X43.9069 Y6.1827
G1 X43.9020 Y6.1771
G1 X43.8974 Y6.1696
G1 X43.8863 Y6.1574
G1 X43.8822 Y6.1512
G1 X43.8787 Y6.1434
G1 X43.8731 Y6.1244
G1 X43.8628 Y6.1047
G1 X43.8605 Y6.0977
G1 X43.8593 Y6.0916
G1 X43.8590 Y6.0854
G1 X43.8594 Y6.0777
G1 X43.8574 Y6.0703
G1 X43.8564 Y6.0630
G1 X43.8568 Y6.0531
G1 X43.8580 Y6.0470
G1 X43.8632 Y6.0292
G1 X43.8648 Y6.0095
G1 X43.8667 Y6.0010
G1 X43.8706 Y5.9919
G1 X43.8732 Y5.9877
G1 X43.8770 Y5.9825
G1 X43.8793 Y5.9752
G1 X43.8824 Y5.9685
G1 X43.8851 Y5.9643
G1 X43.8889 Y5.9594
G1 X43.8924 Y5.9559
G1 X43.9064 Y5.9438
G1 X43.9184 Y5.9281
G1 X43.9242 Y5.9222
G1 X44.0064 Y5.8614
G1 X44.0781 Y5.7643
G1 X44.1184 Y5.6490
G1 X44.1205 Y5.6269
G1 X44.1205 Y5.2231
G1 X44.1184 Y5.2011
G1 X44.0781 Y5.0858
G1 X44.0064 Y4.9886
G1 X43.9093 Y4.9169
G1 X43.7940 Y4.8766
G1 X43.7719 Y4.8745
G1 X42.3181 Y4.8745
G1 X42.2961 Y4.8766
G1 X42.1808 Y4.9169
G1 X42.0836 Y4.9886
G1 X42.0119 Y5.0858
G1 X41.9716 Y5.2011
G1 X41.9695 Y5.2231
G1 X41.9695 Y5.6269
G1 X41.9716 Y5.6490
G1 X42.0119 Y5.7643
G1 X42.0836 Y5.8614
G1 X42.1641 Y5.9208
G1 X42.1740 Y5.9288
G1 X42.1850 Y5.9394
G1 X42.1908 Y5.9472
G1 X42.2054 Y5.9742
G1 X42.2232 Y6.0022
G1 X42.2264 Y6.0103
G1 X42.2298 Y6.0236
G1 X42.2308 Y6.0297
G1 X42.2310 Y6.0359
G1 X42.2287 Y6.0666
G1 X42.2287 Y6.0948
G1 X42.2283 Y6.1010
G1 X42.2261 Y6.1107
G1 X42.2221 Y6.1225
G1 X42.2195 Y6.1281
G1 X42.2161 Y6.1334
G1 X42.1983 Y6.1569
G1 X42.1817 Y6.1826
G1 X42.1764 Y6.1890
G1 X42.1670 Y6.1971
G1 X42.0836 Y6.2586
G1 X42.0620 Y6.2877
G1 X42.0577 Y6.2921
G1 X42.0446 Y6.3034
G1 X42.0275 Y6.3162
G1 X42.0234 Y6.3187
G1 X42.0180 Y6.3212
G1 X41.9430 Y6.3434
G1 X41.9383 Y6.3442
G1 X41.9324 Y6.3445
G1 X41.5333 Y6.3444
G1 X41.5031 Y6.3411
G1 X41.4971 Y6.3397
G1 X41.4925 Y6.3382
G1 X41.4869 Y6.3356
G1 X41.4256 Y6.3021
G1 X41.4187 Y6.2975
G1 X41.4142 Y6.2935
G1 X38.6015 Y3.4808
G1 X38.5979 Y3.4768
G1 X38.5784 Y3.4522
G1 X38.5748 Y3.4458
G1 X38.5722 Y3.4389
G1 X38.5522 Y3.3707
G1 X38.5506 Y3.3613
G1 X38.5505 Y2.9369
G1 X38.5415 Y2.8618
G1 X38.4934 Y2.7398
G1 X38.4144 Y2.6356
G1 X38.3163 Y2.5611
G1 X38.3014 Y2.5480
G1 X38.2974 Y2.5433
G1 X38.2942 Y2.5387
G1 X38.2846 Y2.5285
G1 X38.2811 Y2.5236
G1 X38.2783 Y2.5183
G1 X38.2696 Y2.4942
G1 X38.2589 Y2.4749
G1 X38.2560 Y2.4681
G1 X38.2539 Y2.4597
G1 X38.2533 Y2.4535
G1 X38.2534 Y2.4482
G1 X38.2513 Y2.4407
G1 X38.2504 Y2.4321
G1 X38.2512 Y2.4222
G1 X38.2565 Y2.3996
G1 X38.2580 Y2.3776
G1 X38.2595 Y2.3690
G1 X38.2630 Y2.3598
G1 X38.2678 Y2.3521
G1 X38.2692 Y2.3470
G1 X38.2716 Y2.3413
G1 X38.2768 Y2.3328
G1 X38.2809 Y2.3282
G1 X38.2967 Y2.3129
G1 X38.3105 Y2.2943
G1 X38.3163 Y2.2883
G1 X38.4140 Y2.2140
G1 X38.4929 Y2.1100
G1 X38.5410 Y1.9881
G1 X38.5500 Y1.9131
G1 X38.5500 Y1.8500
G1 X38.3500 Y1.8500
G1 X38.3500 Y1.8762
G1 X38.3488 Y1.9007
G1 X38.3451 Y1.9262
G1 X38.3382 Y1.9548
G1 X38.3300 Y1.9780
G1 X38.3175 Y2.0046
G1 X38.3037 Y2.0278
G1 X38.2876 Y2.0495
G1 X38.2712 Y2.0677
G1 X38.2495 Y2.0876
G1 X38.2278 Y2.1037
G1 X38.2046 Y2.1175
G1 X38.1803 Y2.1291
G1 X38.1548 Y2.1382
G1 X38.1287 Y2.1447
G1 X38.1020 Y2.1487
G1 X38.0750 Y2.1500
G1 X37.5738 Y2.1500
G1 X37.5481 Y2.1487
G1 X37.5238 Y2.1451
G1 X37.4952 Y2.1382
G1 X37.4698 Y2.1291
G1 X37.4476 Y2.1186
G1 X37.4202 Y2.1023
G1 X37.4006 Y2.0876
G1 X37.3806 Y2.0695
G1 X37.3624 Y2.0495
G1 X37.3464 Y2.0278
G1 X37.3325 Y2.0046
G1 X37.3219 Y1.9825
G1 X37.3112 Y1.9525
G1 X37.3053 Y1.9287
G1 X37.3013 Y1.9020
G1 X37.3000 Y1.8762
G1 X37.3000 Y1.8500
G1 X37.1000 Y1.8500
G1 X37.1000 Y1.9131
G1 X37.1090 Y1.9881
G1 X37.1571 Y2.1100
G1 X37.2360 Y2.2140
G1 X37.3318 Y2.2867
G1 X37.3475 Y2.3004
G1 X37.3510 Y2.3040
G1 X37.3547 Y2.3090
G1 X37.3911 Y2.3744
G1 X37.3936 Y2.3801
G1 X37.3954 Y2.3861
G1 X37.3965 Y2.3922
G1 X37.3968 Y2.3996
G1 X37.3919 Y2.4730
G1 X37.3908 Y2.4791
G1 X37.3894 Y2.4839
G1 X37.3875 Y2.4885
G1 X37.3846 Y2.4939
G1 X37.3379 Y2.5569
G1 X37.3309 Y2.5633
G1 X37.2356 Y2.6356
G1 X37.1566 Y2.7398
G1 X37.1085 Y2.8618
G1 X37.0995 Y2.9369
G1 X37.0995 Y3.3928
G1 X37.0964 Y3.4245
G1 X37.0947 Y3.4329
G1 X37.0911 Y3.4420
G1 X37.0571 Y3.5044
G1 X37.0539 Y3.5094
G1 X37.0502 Y3.5141
G1 X36.9589 Y3.6054
G1 X36.9322 Y3.6266
G1 X36.9197 Y3.6340
G1 X36.9115 Y3.6373
G1 X36.8796 Y3.6443
G1 X36.8495 Y3.6531
G1 X36.8437 Y3.6542
G1 X36.8378 Y3.6545
G1 X30.4389 Y3.6545
G1 X30.3497 Y3.6784
G1 X30.2698 Y3.7245
G1 X29.4198 Y4.5745
G1 X29.3942 Y4.5953
G1 X29.3891 Y4.5985
G1 X29.3835 Y4.6012
G1 X29.3107 Y4.6228
G1 X29.3060 Y4.6238
G1 X29.3001 Y4.6245
G1 X16.2135 Y4.6243
G1 X16.2064 Y4.6236
G1 X16.1994 Y4.6219
G1 X16.1300 Y4.5974
G1 X16.1244 Y4.5947
G1 X16.1192 Y4.5914
G1 X16.1154 Y4.5882
G1 X16.1111 Y4.5838
G1 X16.0666 Y4.5267
G1 X16.0620 Y4.5197
G1 X16.0595 Y4.5143
G1 X16.0154 Y4.4024
G1 X15.9322 Y4.2928
G1 X15.8226 Y4.2096
G1 X15.6942 Y4.1590
G1 X15.6151 Y4.1495
G1 X14.2349 Y4.1495
G1 X14.1558 Y4.1590
G1 X14.0274 Y4.2096
G1 X13.9178 Y4.2928
G1 X13.8346 Y4.4024
G1 X13.7900 Y4.5156
G1 X13.7848 Y4.5270
G1 X13.7792 Y4.5348
G1 X13.7326 Y4.5885
G1 X13.7272 Y4.5936
G1 X13.7222 Y4.5972
G1 X13.7156 Y4.6007
G1 X13.7098 Y4.6028
G1 X13.6416 Y4.6228
G1 X13.6322 Y4.6244
G1 X12.7801 Y4.6245
G1 X12.7686 Y4.6241
G1 X12.7615 Y4.6229
G1 X12.6887 Y4.5974
G1 X12.6810 Y4.5935
G1 X12.6741 Y4.5882
G1 X12.6682 Y4.5818
G1 X12.6245 Y4.5258
G1 X12.6213 Y4.5208
G1 X12.6184 Y4.5148
G1 X12.5394 Y4.4106
G1 X12.4353 Y4.3316
G1 X12.3132 Y4.2835
